; generated by PrusaSlicer 2.2.0+win64 on 2021-04-25 at 19:20:40 UTC

; 

; external perimeters extrusion width = 0.86mm
; perimeters extrusion width = 0.86mm
; infill extrusion width = 0.93mm
; solid infill extrusion width = 0.93mm
; top infill extrusion width = 0.80mm
; first layer extrusion width = 0.86mm

M73 P0 R97
M73 Q0 S97
M201 X1000 Y1000 Z1000 E5000 ; sets maximum accelerations, mm/sec^2
M203 X200 Y200 Z12 E120 ; sets maximum feedrates, mm/sec
M204 P1250 R1250 T1250 ; sets acceleration (P, T) and retract acceleration (R), mm/sec^2
M205 X8.00 Y8.00 Z0.40 E1.50 ; sets the jerk limits, mm/sec
M205 S0 T0 ; sets the minimum extruding and travel feed rate, mm/sec
M107
M862.3 P "MK3S" ; printer model check
M862.1 P0.8 ; nozzle diameter check
M115 U3.8.1 ; tell printer latest fw version
G90 ; use absolute coordinates
M83 ; extruder relative mode
M104 S240 ; set extruder temp
M140 S85 ; set bed temp
M190 S85 ; wait for bed temp
M109 S240 ; wait for extruder temp
G28 W ; home all without mesh bed level
G80 ; mesh bed leveling
G1 Y-3.0 F1000.0 ; go outside print area
G92 E0.0
G1 X60.0 E9.0 F1000.0 ; intro line
M73 Q0 S97
M73 P0 R97
G1 X100.0 E12.5 F1000.0 ; intro line
G92 E0.0
M221 S95
G21 ; set units to millimeters
G90 ; use absolute coordinates
M83 ; use relative distances for extrusion
M900 K0.08 ; Filament gcode LA 1.5
M900 K45 ; Filament gcode LA 1.0
;BEFORE_LAYER_CHANGE
G92 E0.0
;0.2


G1 E-1.40000 F2100.00000
G1 Z0.200 F10800.000
;AFTER_LAYER_CHANGE
;0.2
G1 Z0.400
G1 X55.392 Y70.225
G1 Z0.200
G1 E1.40000 F2100.00000
M204 S1000
G1 F1200.000
G1 X57.804 Y68.493 E0.20175
G1 X60.198 Y66.990 E0.19204
G1 X61.517 Y66.268 E0.10217
G1 X64.172 Y64.952 E0.20131
G1 X68.210 Y63.369 E0.29471
G1 X72.386 Y62.192 E0.29471
G1 X75.296 Y61.639 E0.20130
G1 X78.239 Y61.272 E0.20146
G1 X81.060 Y61.097 E0.19204
G1 X82.547 Y61.094 E0.10104
G1 X85.516 Y61.207 E0.20188
G1 X187.061 Y70.187 E6.92589
G1 X189.190 Y70.507 E0.14629
G1 X191.207 Y70.914 E0.13981
G1 X193.402 Y71.472 E0.15386
G1 X195.364 Y72.079 E0.13957
G1 X197.364 Y72.807 E0.14460
G1 X199.318 Y73.630 E0.14404
G1 X201.254 Y74.564 E0.14601
G1 X203.097 Y75.568 E0.14263
G1 X204.910 Y76.676 E0.14432
G1 X206.665 Y77.872 E0.14432
G1 X208.358 Y79.155 E0.14432
G1 X209.986 Y80.520 E0.14432
G1 X211.543 Y81.965 E0.14432
G1 X213.026 Y83.486 E0.14432
G1 X214.431 Y85.079 E0.14432
G1 X215.756 Y86.739 E0.14432
G1 X216.996 Y88.464 E0.14432
G1 X218.148 Y90.249 E0.14432
G1 X219.210 Y92.088 E0.14432
G1 X220.180 Y93.978 E0.14432
G1 X221.053 Y95.915 E0.14432
G1 X221.829 Y97.892 E0.14432
G1 X222.506 Y99.906 E0.14432
G1 X223.081 Y101.950 E0.14432
G1 X223.554 Y104.021 E0.14432
G1 X223.923 Y106.113 E0.14432
G1 X224.187 Y108.221 E0.14432
G1 X224.345 Y110.339 E0.14432
G1 X224.398 Y112.463 E0.14432
G1 X224.345 Y114.587 E0.14432
G1 X224.187 Y116.705 E0.14432
G1 X223.923 Y118.813 E0.14432
G1 X223.554 Y120.904 E0.14432
G1 X223.081 Y122.975 E0.14432
G1 X222.506 Y125.020 E0.14432
G1 X221.829 Y127.034 E0.14432
G1 X221.053 Y129.011 E0.14432
G1 X220.179 Y130.947 E0.14432
G1 X219.232 Y132.798 E0.14122
G1 X218.148 Y134.677 E0.14742
G1 X216.955 Y136.519 E0.14907
G1 X215.756 Y138.186 E0.13957
G1 X214.476 Y139.793 E0.13953
G1 X213.026 Y141.440 E0.14911
G1 X211.492 Y143.009 E0.14907
G1 X209.985 Y144.405 E0.13957
G1 X208.412 Y145.726 E0.13953
G1 X206.668 Y147.051 E0.14882
G1 X204.910 Y148.250 E0.14460
G1 X203.039 Y149.390 E0.14883
G1 X201.231 Y150.374 E0.13981
G1 X199.381 Y151.265 E0.13953
G1 X197.364 Y152.119 E0.14882
G1 X195.364 Y152.847 E0.14460
G1 X193.270 Y153.490 E0.14882
G1 X191.276 Y153.997 E0.13981
G1 X189.263 Y154.405 E0.13953
G1 X187.097 Y154.734 E0.14882
G1 X184.963 Y154.947 E0.14573
G1 X182.788 Y155.053 E0.14795
G1 X180.734 Y155.052 E0.13957
G1 X178.658 Y154.949 E0.14122
G1 X78.193 Y148.741 E6.83860
G1 X76.693 Y148.589 E0.10247
G1 X73.859 Y148.125 E0.19510
G1 X72.381 Y147.824 E0.10247
G1 X69.607 Y147.080 E0.19510
G1 X68.167 Y146.633 E0.10247
G1 X65.481 Y145.617 E0.19510
G1 X64.092 Y145.029 E0.10247
G1 X61.539 Y143.760 E0.19369
G1 X58.950 Y142.264 E0.20315
G1 X56.595 Y140.701 E0.19204
G1 X55.395 Y139.795 E0.10217
G1 X53.103 Y137.916 E0.20131
G1 X49.999 Y134.886 E0.29471
G1 X47.210 Y131.565 E0.29471
G1 X45.508 Y129.139 E0.20130
G1 X44.694 Y127.874 E0.10219
G1 X43.311 Y125.410 E0.19200
G1 X42.023 Y122.739 E0.20148
G1 X40.908 Y119.993 E0.20131
G1 X39.632 Y115.848 E0.29471
G1 X38.770 Y111.596 E0.29471
G1 X38.436 Y108.656 E0.20101
G1 X38.290 Y105.691 E0.20175
G1 X38.326 Y102.864 E0.19204
G1 X38.436 Y101.364 E0.10217
G1 X38.770 Y98.420 E0.20131
G1 X39.632 Y94.169 E0.29471
G1 X40.909 Y90.023 E0.29471
G1 X42.023 Y87.278 E0.20130
G1 X42.644 Y85.908 E0.10219
G1 X43.964 Y83.409 E0.19200
G1 X45.511 Y80.874 E0.20176
G1 X47.210 Y78.452 E0.20103
G1 X50.000 Y75.130 E0.29471
G1 X53.104 Y72.100 E0.29471
G1 X55.299 Y70.301 E0.19286
G1 F8640.000
G1 X57.804 Y68.493 E-0.71331
G1 X60.066 Y67.072 E-0.61669
G1 E-0.07000 F2100.00000
G1 Z0.400 F10800.000
G1 X147.050 Y101.128
G1 Z0.200
G1 E1.40000 F2100.00000
G1 F1200.000
G1 X147.443 Y99.959 E0.08375
G1 X148.109 Y98.262 E0.12384
G1 X148.859 Y96.601 E0.12384
G1 X149.690 Y94.979 E0.12384
G1 X150.602 Y93.400 E0.12384
G1 X151.590 Y91.869 E0.12384
G1 X152.655 Y90.389 E0.12384
G1 X153.791 Y88.964 E0.12384
G1 X154.997 Y87.597 E0.12384
G1 X156.270 Y86.292 E0.12384
G1 X157.606 Y85.052 E0.12384
G1 X159.003 Y83.881 E0.12384
G1 X160.456 Y82.780 E0.12384
G1 X161.962 Y81.753 E0.12384
G1 X163.517 Y80.803 E0.12384
G1 X165.118 Y79.931 E0.12384
G1 X166.760 Y79.140 E0.12384
G1 X168.440 Y78.432 E0.12384
G1 X170.153 Y77.809 E0.12384
G1 X171.895 Y77.271 E0.12384
G1 X173.661 Y76.822 E0.12384
G1 X175.448 Y76.460 E0.12384
G1 X177.250 Y76.189 E0.12384
G1 X179.064 Y76.007 E0.12384
G1 X180.885 Y75.916 E0.12384
G1 X182.707 Y75.916 E0.12384
G1 X184.528 Y76.007 E0.12384
G1 X186.342 Y76.189 E0.12384
G1 X188.144 Y76.460 E0.12384
G1 X189.931 Y76.822 E0.12384
G1 X191.697 Y77.271 E0.12384
G1 X193.439 Y77.809 E0.12384
G1 X195.152 Y78.432 E0.12384
G1 X196.832 Y79.140 E0.12384
G1 X198.474 Y79.931 E0.12384
G1 X200.075 Y80.803 E0.12384
G1 X201.630 Y81.753 E0.12384
G1 X203.136 Y82.780 E0.12384
G1 X204.589 Y83.881 E0.12384
G1 X205.986 Y85.052 E0.12384
G1 X207.322 Y86.292 E0.12384
G1 X208.595 Y87.597 E0.12384
G1 X209.801 Y88.964 E0.12384
G1 X210.937 Y90.389 E0.12384
G1 X212.001 Y91.869 E0.12384
G1 X212.990 Y93.400 E0.12384
G1 X213.902 Y94.979 E0.12384
G1 X214.733 Y96.601 E0.12384
G1 X215.483 Y98.262 E0.12384
G1 X216.149 Y99.959 E0.12384
G1 X216.730 Y101.687 E0.12384
G1 X217.223 Y103.442 E0.12384
G1 X217.629 Y105.219 E0.12384
G1 X217.945 Y107.014 E0.12384
G1 X218.172 Y108.823 E0.12384
G1 X218.308 Y110.640 E0.12384
G1 X218.354 Y112.463 E0.12384
G1 X218.308 Y114.285 E0.12384
G1 X218.172 Y116.103 E0.12384
G1 X217.945 Y117.911 E0.12384
G1 X217.629 Y119.706 E0.12384
G1 X217.223 Y121.484 E0.12384
G1 X216.730 Y123.238 E0.12384
G1 X216.149 Y124.966 E0.12384
G1 X215.483 Y126.663 E0.12384
G1 X214.733 Y128.325 E0.12384
G1 X213.902 Y129.947 E0.12384
G1 X212.990 Y131.525 E0.12384
G1 X212.001 Y133.056 E0.12384
G1 X210.937 Y134.536 E0.12384
G1 X209.801 Y135.962 E0.12384
G1 X208.595 Y137.328 E0.12384
G1 X207.322 Y138.633 E0.12384
G1 X205.986 Y139.873 E0.12384
G1 X204.589 Y141.045 E0.12384
G1 X203.136 Y142.145 E0.12384
G1 X201.630 Y143.172 E0.12384
G1 X200.075 Y144.123 E0.12384
G1 X198.474 Y144.994 E0.12384
G1 X196.832 Y145.785 E0.12384
G1 X195.152 Y146.493 E0.12384
G1 X193.439 Y147.117 E0.12384
G1 X191.697 Y147.654 E0.12384
G1 X189.931 Y148.104 E0.12384
G1 X188.144 Y148.465 E0.12384
G1 X186.342 Y148.737 E0.12384
G1 X184.528 Y148.918 E0.12384
G1 X182.707 Y149.009 E0.12384
G1 X180.885 Y149.009 E0.12384
G1 X179.064 Y148.918 E0.12384
G1 X177.250 Y148.737 E0.12384
G1 X175.448 Y148.465 E0.12384
G1 X173.661 Y148.104 E0.12384
G1 X171.895 Y147.654 E0.12384
G1 X170.153 Y147.117 E0.12384
G1 X168.440 Y146.493 E0.12384
G1 X166.760 Y145.785 E0.12384
G1 X165.118 Y144.994 E0.12384
G1 X163.517 Y144.123 E0.12384
G1 X161.962 Y143.172 E0.12384
G1 X160.456 Y142.145 E0.12384
G1 X159.003 Y141.045 E0.12384
G1 X157.606 Y139.873 E0.12384
G1 X156.270 Y138.633 E0.12384
G1 X154.997 Y137.328 E0.12384
G1 X153.791 Y135.962 E0.12384
G1 X152.655 Y134.536 E0.12384
G1 X151.590 Y133.056 E0.12384
G1 X150.602 Y131.525 E0.12384
G1 X149.690 Y129.947 E0.12384
G1 X148.859 Y128.325 E0.12384
G1 X148.109 Y126.663 E0.12384
G1 X147.443 Y124.966 E0.12384
G1 X146.862 Y123.238 E0.12384
G1 X146.369 Y121.484 E0.12384
G1 X145.963 Y119.706 E0.12384
G1 X145.646 Y117.911 E0.12384
G1 X145.420 Y116.103 E0.12384
G1 X145.284 Y114.285 E0.12384
G1 X145.238 Y112.463 E0.12384
G1 X145.284 Y110.640 E0.12384
G1 X145.420 Y108.823 E0.12384
G1 X145.646 Y107.014 E0.12384
G1 X145.963 Y105.219 E0.12384
G1 X146.369 Y103.442 E0.12384
G1 X146.862 Y101.687 E0.12384
G1 X147.012 Y101.241 E0.03194
G1 X146.238 Y100.981 F10800.000
G1 F1200.000
G1 X146.675 Y99.680 E0.09328
G1 X147.356 Y97.945 E0.12661
G1 X148.122 Y96.246 E0.12661
G1 X148.972 Y94.588 E0.12661
G1 X149.904 Y92.974 E0.12661
G1 X150.915 Y91.409 E0.12661
G1 X152.003 Y89.895 E0.12661
G1 X153.165 Y88.438 E0.12661
G1 X154.398 Y87.041 E0.12661
G1 X155.699 Y85.707 E0.12661
G1 X157.065 Y84.440 E0.12661
G1 X158.493 Y83.242 E0.12661
G1 X159.978 Y82.116 E0.12661
G1 X161.518 Y81.067 E0.12661
G1 X163.108 Y80.095 E0.12661
G1 X164.745 Y79.204 E0.12661
G1 X166.424 Y78.395 E0.12661
G1 X168.141 Y77.671 E0.12661
G1 X169.892 Y77.034 E0.12661
G1 X171.673 Y76.485 E0.12661
G1 X173.479 Y76.025 E0.12661
G1 X175.306 Y75.655 E0.12661
G1 X177.149 Y75.378 E0.12661
G1 X179.003 Y75.192 E0.12661
G1 X180.864 Y75.099 E0.12661
G1 X182.728 Y75.099 E0.12661
G1 X184.589 Y75.192 E0.12661
G1 X186.443 Y75.378 E0.12661
G1 X188.286 Y75.655 E0.12661
G1 X190.113 Y76.025 E0.12661
G1 X191.919 Y76.485 E0.12661
G1 X193.699 Y77.034 E0.12661
G1 X195.451 Y77.671 E0.12661
G1 X197.168 Y78.395 E0.12661
G1 X198.847 Y79.204 E0.12661
G1 X200.483 Y80.095 E0.12661
G1 X202.074 Y81.067 E0.12661
G1 X203.613 Y82.116 E0.12661
G1 X205.099 Y83.242 E0.12661
G1 X206.527 Y84.440 E0.12661
G1 X207.893 Y85.707 E0.12661
G1 X209.194 Y87.041 E0.12661
G1 X210.427 Y88.438 E0.12661
G1 X211.589 Y89.895 E0.12661
G1 X212.677 Y91.409 E0.12661
G1 X213.688 Y92.974 E0.12661
G1 X214.620 Y94.588 E0.12661
G1 X215.470 Y96.246 E0.12661
G1 X216.236 Y97.945 E0.12661
G1 X216.917 Y99.680 E0.12661
G1 X217.511 Y101.446 E0.12661
G1 X218.015 Y103.240 E0.12661
G1 X218.430 Y105.057 E0.12661
G1 X218.754 Y106.892 E0.12661
G1 X218.985 Y108.741 E0.12661
G1 X219.125 Y110.600 E0.12661
G1 X219.171 Y112.463 E0.12661
G1 X219.125 Y114.326 E0.12661
G1 X218.985 Y116.184 E0.12661
G1 X218.754 Y118.033 E0.12661
G1 X218.430 Y119.868 E0.12661
G1 X218.015 Y121.685 E0.12661
G1 X217.511 Y123.479 E0.12661
G1 X216.917 Y125.246 E0.12661
G1 X216.236 Y126.981 E0.12661
G1 X215.470 Y128.679 E0.12661
G1 X214.620 Y130.338 E0.12661
G1 X213.688 Y131.951 E0.12661
G1 X212.677 Y133.517 E0.12661
G1 X211.589 Y135.030 E0.12661
G1 X210.427 Y136.487 E0.12661
G1 X209.194 Y137.884 E0.12661
G1 X207.893 Y139.218 E0.12661
G1 X206.527 Y140.486 E0.12661
G1 X205.099 Y141.684 E0.12661
G1 X203.613 Y142.809 E0.12661
G1 X202.074 Y143.859 E0.12661
G1 X200.483 Y144.831 E0.12661
G1 X198.847 Y145.722 E0.12661
G1 X197.168 Y146.530 E0.12661
G1 X195.451 Y147.254 E0.12661
G1 X193.699 Y147.892 E0.12661
G1 X191.919 Y148.441 E0.12661
G1 X190.113 Y148.901 E0.12661
G1 X188.286 Y149.270 E0.12661
G1 X186.443 Y149.548 E0.12661
G1 X184.589 Y149.733 E0.12661
G1 X182.728 Y149.826 E0.12661
G1 X180.864 Y149.826 E0.12661
G1 X179.003 Y149.733 E0.12661
G1 X177.149 Y149.548 E0.12661
G1 X175.306 Y149.270 E0.12661
G1 X173.479 Y148.901 E0.12661
G1 X171.673 Y148.441 E0.12661
G1 X169.892 Y147.892 E0.12661
G1 X168.141 Y147.254 E0.12661
G1 X166.424 Y146.530 E0.12661
G1 X164.745 Y145.722 E0.12661
G1 X163.108 Y144.831 E0.12661
G1 X161.518 Y143.859 E0.12661
G1 X159.978 Y142.809 E0.12661
G1 X158.493 Y141.684 E0.12661
G1 X157.065 Y140.486 E0.12661
G1 X155.699 Y139.218 E0.12661
G1 X154.398 Y137.884 E0.12661
G1 X153.165 Y136.487 E0.12661
G1 X152.003 Y135.030 E0.12661
G1 X150.915 Y133.517 E0.12661
G1 X149.904 Y131.951 E0.12661
G1 X148.972 Y130.338 E0.12661
G1 X148.122 Y128.679 E0.12661
G1 X147.356 Y126.981 E0.12661
G1 X146.675 Y125.246 E0.12661
G1 X146.081 Y123.479 E0.12661
G1 X145.577 Y121.685 E0.12661
G1 X145.162 Y119.868 E0.12661
G1 X144.838 Y118.033 E0.12661
G1 X144.607 Y116.184 E0.12661
G1 X144.467 Y114.326 E0.12661
G1 X144.421 Y112.463 E0.12661
G1 X144.467 Y110.600 E0.12661
G1 X144.607 Y108.741 E0.12661
G1 X144.838 Y106.892 E0.12661
G1 X145.162 Y105.057 E0.12661
G1 X145.577 Y103.240 E0.12661
G1 X146.081 Y101.446 E0.12661
G1 X146.199 Y101.095 E0.02518
G1 X145.425 Y100.835 F10800.000
G1 F1200.000
G1 X145.907 Y99.400 E0.10282
G1 X146.602 Y97.627 E0.12938
G1 X147.386 Y95.892 E0.12938
G1 X148.254 Y94.197 E0.12938
G1 X149.207 Y92.548 E0.12938
G1 X150.240 Y90.948 E0.12938
G1 X151.351 Y89.402 E0.12938
G1 X152.539 Y87.913 E0.12938
G1 X153.799 Y86.485 E0.12938
G1 X155.129 Y85.122 E0.12938
G1 X156.525 Y83.827 E0.12938
G1 X157.983 Y82.603 E0.12938
G1 X159.501 Y81.453 E0.12938
G1 X161.075 Y80.380 E0.12938
G1 X162.700 Y79.387 E0.12938
G1 X164.372 Y78.476 E0.12938
G1 X166.088 Y77.650 E0.12938
G1 X167.843 Y76.910 E0.12938
G1 X169.632 Y76.259 E0.12938
G1 X171.452 Y75.698 E0.12938
G1 X173.297 Y75.228 E0.12938
G1 X175.164 Y74.850 E0.12938
G1 X177.047 Y74.567 E0.12938
G1 X178.942 Y74.377 E0.12938
G1 X180.844 Y74.282 E0.12938
G1 X182.748 Y74.282 E0.12938
G1 X184.650 Y74.377 E0.12938
G1 X186.545 Y74.567 E0.12938
G1 X188.428 Y74.850 E0.12938
G1 X190.295 Y75.228 E0.12938
G1 X192.140 Y75.698 E0.12938
G1 X193.960 Y76.259 E0.12938
G1 X195.749 Y76.910 E0.12938
G1 X197.504 Y77.650 E0.12938
G1 X199.220 Y78.476 E0.12938
G1 X200.892 Y79.387 E0.12938
G1 X202.517 Y80.380 E0.12938
G1 X204.091 Y81.453 E0.12938
G1 X205.609 Y82.603 E0.12938
G1 X207.067 Y83.827 E0.12938
G1 X208.463 Y85.122 E0.12938
G1 X209.793 Y86.485 E0.12938
G1 X211.053 Y87.913 E0.12938
G1 X212.240 Y89.402 E0.12938
G1 X213.352 Y90.948 E0.12938
G1 X214.385 Y92.548 E0.12938
G1 X215.337 Y94.197 E0.12938
G1 X216.206 Y95.892 E0.12938
G1 X216.989 Y97.627 E0.12938
G1 X217.685 Y99.400 E0.12938
G1 X218.292 Y101.205 E0.12938
G1 X218.807 Y103.038 E0.12938
G1 X219.231 Y104.895 E0.12938
G1 X219.562 Y106.770 E0.12938
G1 X219.799 Y108.660 E0.12938
G1 X219.941 Y110.559 E0.12938
G1 X219.988 Y112.463 E0.12938
G1 X219.941 Y114.366 E0.12938
G1 X219.799 Y116.265 E0.12938
G1 X219.562 Y118.155 E0.12938
G1 X219.231 Y120.030 E0.12938
G1 X218.807 Y121.887 E0.12938
G1 X218.292 Y123.720 E0.12938
G1 X217.685 Y125.525 E0.12938
G1 X216.989 Y127.298 E0.12938
G1 X216.206 Y129.034 E0.12938
G1 X215.337 Y130.728 E0.12938
G1 X214.385 Y132.378 E0.12938
G1 X213.352 Y133.977 E0.12938
G1 X212.240 Y135.523 E0.12938
G1 X211.053 Y137.012 E0.12938
G1 X209.793 Y138.440 E0.12938
G1 X208.463 Y139.803 E0.12938
G1 X207.067 Y141.099 E0.12938
G1 X205.609 Y142.323 E0.12938
G1 X204.091 Y143.473 E0.12938
G1 X202.517 Y144.545 E0.12938
G1 X200.892 Y145.538 E0.12938
G1 X199.220 Y146.449 E0.12938
G1 X197.504 Y147.275 E0.12938
G1 X195.749 Y148.015 E0.12938
G1 X193.960 Y148.666 E0.12938
G1 X192.140 Y149.228 E0.12938
G1 X190.295 Y149.698 E0.12938
G1 X188.428 Y150.075 E0.12938
G1 X186.545 Y150.359 E0.12938
G1 X184.650 Y150.548 E0.12938
G1 X182.748 Y150.643 E0.12938
G1 X180.844 Y150.643 E0.12938
M73 Q1 S96
G1 X178.942 Y150.548 E0.12938
G1 X177.047 Y150.359 E0.12938
G1 X175.164 Y150.075 E0.12938
G1 X173.297 Y149.698 E0.12938
G1 X171.452 Y149.228 E0.12938
M73 P1 R96
G1 X169.632 Y148.666 E0.12938
G1 X167.843 Y148.015 E0.12938
G1 X166.088 Y147.275 E0.12938
G1 X164.372 Y146.449 E0.12938
G1 X162.700 Y145.538 E0.12938
G1 X161.075 Y144.545 E0.12938
G1 X159.501 Y143.473 E0.12938
G1 X157.983 Y142.323 E0.12938
G1 X156.525 Y141.099 E0.12938
G1 X155.129 Y139.803 E0.12938
G1 X153.799 Y138.440 E0.12938
G1 X152.539 Y137.012 E0.12938
G1 X151.351 Y135.523 E0.12938
G1 X150.240 Y133.977 E0.12938
G1 X149.207 Y132.378 E0.12938
G1 X148.254 Y130.728 E0.12938
G1 X147.386 Y129.034 E0.12938
G1 X146.602 Y127.298 E0.12938
G1 X145.907 Y125.525 E0.12938
G1 X145.300 Y123.720 E0.12938
