; generated by PrusaSlicer 2.2.0+win64 on 2021-04-25 at 19:05:20 UTC

; 

; external perimeters extrusion width = 0.86mm
; perimeters extrusion width = 0.86mm
; infill extrusion width = 0.93mm
; solid infill extrusion width = 0.93mm
; top infill extrusion width = 0.80mm
; first layer extrusion width = 0.86mm

M73 P0 R227
M73 Q0 S227
M201 X1000 Y1000 Z1000 E5000 ; sets maximum accelerations, mm/sec^2
M203 X200 Y200 Z12 E120 ; sets maximum feedrates, mm/sec
M204 P1250 R1250 T1250 ; sets acceleration (P, T) and retract acceleration (R), mm/sec^2
M205 X8.00 Y8.00 Z0.40 E1.50 ; sets the jerk limits, mm/sec
M205 S0 T0 ; sets the minimum extruding and travel feed rate, mm/sec
M107
M862.3 P "MK3S" ; printer model check
M862.1 P0.8 ; nozzle diameter check
M115 U3.8.1 ; tell printer latest fw version
G90 ; use absolute coordinates
M83 ; extruder relative mode
M104 S240 ; set extruder temp
M140 S85 ; set bed temp
M190 S85 ; wait for bed temp
M109 S240 ; wait for extruder temp
G28 W ; home all without mesh bed level
G80 ; mesh bed leveling
G1 Y-3.0 F1000.0 ; go outside print area
G92 E0.0
G1 X60.0 E9.0 F1000.0 ; intro line
M73 Q0 S227
M73 P0 R227
G1 X100.0 E12.5 F1000.0 ; intro line
G92 E0.0
M221 S95
G21 ; set units to millimeters
G90 ; use absolute coordinates
M83 ; use relative distances for extrusion
M900 K0.08 ; Filament gcode LA 1.5
M900 K45 ; Filament gcode LA 1.0
;BEFORE_LAYER_CHANGE
G92 E0.0
;0.2


G1 E-1.40000 F2100.00000
G1 Z0.200 F10800.000
;AFTER_LAYER_CHANGE
;0.2
G1 Z0.400
G1 X55.392 Y70.225
G1 Z0.200
G1 E1.40000 F2100.00000
M204 S1000
G1 F1200.000
G1 X57.804 Y68.493 E0.20175
G1 X60.198 Y66.990 E0.19204
G1 X61.517 Y66.268 E0.10217
G1 X64.172 Y64.952 E0.20131
G1 X68.210 Y63.369 E0.29471
G1 X72.386 Y62.192 E0.29471
G1 X75.296 Y61.639 E0.20130
G1 X78.239 Y61.272 E0.20146
G1 X81.060 Y61.097 E0.19204
G1 X82.547 Y61.094 E0.10104
G1 X85.516 Y61.207 E0.20188
G1 X187.061 Y70.187 E6.92589
G1 X189.190 Y70.507 E0.14629
G1 X191.207 Y70.914 E0.13981
G1 X193.402 Y71.472 E0.15386
G1 X195.364 Y72.079 E0.13957
G1 X197.364 Y72.807 E0.14460
G1 X199.318 Y73.630 E0.14404
G1 X201.254 Y74.564 E0.14601
G1 X203.097 Y75.568 E0.14263
G1 X204.910 Y76.676 E0.14432
G1 X206.665 Y77.872 E0.14432
G1 X208.358 Y79.155 E0.14432
G1 X209.986 Y80.520 E0.14432
G1 X211.543 Y81.965 E0.14432
G1 X213.026 Y83.486 E0.14432
G1 X214.431 Y85.079 E0.14432
G1 X215.756 Y86.739 E0.14432
G1 X216.996 Y88.464 E0.14432
G1 X218.148 Y90.249 E0.14432
G1 X219.210 Y92.088 E0.14432
G1 X220.180 Y93.978 E0.14432
G1 X221.053 Y95.915 E0.14432
G1 X221.829 Y97.892 E0.14432
G1 X222.506 Y99.906 E0.14432
G1 X223.081 Y101.950 E0.14432
G1 X223.554 Y104.021 E0.14432
G1 X223.923 Y106.113 E0.14432
G1 X224.187 Y108.221 E0.14432
G1 X224.345 Y110.339 E0.14432
G1 X224.398 Y112.463 E0.14432
G1 X224.345 Y114.587 E0.14432
G1 X224.187 Y116.705 E0.14432
G1 X223.923 Y118.813 E0.14432
G1 X223.554 Y120.904 E0.14432
G1 X223.081 Y122.975 E0.14432
G1 X222.506 Y125.020 E0.14432
G1 X221.829 Y127.034 E0.14432
G1 X221.053 Y129.011 E0.14432
G1 X220.179 Y130.947 E0.14432
G1 X219.232 Y132.798 E0.14122
G1 X218.148 Y134.677 E0.14742
G1 X216.955 Y136.519 E0.14907
G1 X215.756 Y138.186 E0.13957
G1 X214.476 Y139.793 E0.13953
G1 X213.026 Y141.440 E0.14911
G1 X211.492 Y143.009 E0.14907
G1 X209.985 Y144.405 E0.13957
G1 X208.412 Y145.726 E0.13953
G1 X206.668 Y147.051 E0.14882
G1 X204.910 Y148.250 E0.14460
G1 X203.039 Y149.390 E0.14883
G1 X201.231 Y150.374 E0.13981
G1 X199.381 Y151.265 E0.13953
G1 X197.364 Y152.119 E0.14882
G1 X195.364 Y152.847 E0.14460
G1 X193.270 Y153.490 E0.14882
G1 X191.276 Y153.997 E0.13981
G1 X189.263 Y154.405 E0.13953
G1 X187.097 Y154.734 E0.14882
G1 X184.963 Y154.947 E0.14573
G1 X182.788 Y155.053 E0.14795
G1 X180.734 Y155.052 E0.13957
G1 X178.658 Y154.949 E0.14122
G1 X78.193 Y148.741 E6.83860
G1 X76.693 Y148.589 E0.10247
G1 X73.859 Y148.125 E0.19510
G1 X72.381 Y147.824 E0.10247
G1 X69.607 Y147.080 E0.19510
G1 X68.167 Y146.633 E0.10247
G1 X65.481 Y145.617 E0.19510
G1 X64.092 Y145.029 E0.10247
G1 X61.539 Y143.760 E0.19369
G1 X58.950 Y142.264 E0.20315
G1 X56.595 Y140.701 E0.19204
G1 X55.395 Y139.795 E0.10217
G1 X53.103 Y137.916 E0.20131
G1 X49.999 Y134.886 E0.29471
G1 X47.210 Y131.565 E0.29471
G1 X45.508 Y129.139 E0.20130
G1 X44.694 Y127.874 E0.10219
G1 X43.311 Y125.410 E0.19200
G1 X42.023 Y122.739 E0.20148
G1 X40.908 Y119.993 E0.20131
G1 X39.632 Y115.848 E0.29471
G1 X38.770 Y111.596 E0.29471
G1 X38.436 Y108.656 E0.20101
G1 X38.290 Y105.691 E0.20175
G1 X38.326 Y102.864 E0.19204
G1 X38.436 Y101.364 E0.10217
G1 X38.770 Y98.420 E0.20131
G1 X39.632 Y94.169 E0.29471
G1 X40.909 Y90.023 E0.29471
G1 X42.023 Y87.278 E0.20130
G1 X42.644 Y85.908 E0.10219
G1 X43.964 Y83.409 E0.19200
G1 X45.511 Y80.874 E0.20176
G1 X47.210 Y78.452 E0.20103
G1 X50.000 Y75.130 E0.29471
G1 X53.104 Y72.100 E0.29471
G1 X55.299 Y70.301 E0.19286
G1 F8640.000
G1 X57.804 Y68.493 E-0.71331
G1 X60.066 Y67.072 E-0.61669
G1 E-0.07000 F2100.00000
G1 Z0.400 F10800.000
G1 X58.856 Y74.982
G1 Z0.200
G1 E1.40000 F2100.00000
G1 F1200.000
G1 X59.992 Y74.118 E0.09694
G1 X61.611 Y73.018 E0.13299
G1 X63.176 Y72.061 E0.12467
G1 X64.898 Y71.127 E0.13309
G1 X66.551 Y70.331 E0.12467
G1 X68.358 Y69.573 E0.13309
G1 X70.082 Y68.945 E0.12467
G1 X71.955 Y68.370 E0.13309
G1 X73.735 Y67.917 E0.12477
G1 X75.535 Y67.553 E0.12477
G1 X77.471 Y67.258 E0.13309
G1 X79.297 Y67.076 E0.12467
G1 X81.252 Y66.975 E0.13299
G1 X83.209 Y66.978 E0.13299
G1 X85.042 Y67.070 E0.12467
G1 X86.991 Y67.268 E0.13309
G1 X88.805 Y67.541 E0.12467
G1 X90.725 Y67.932 E0.13309
G1 X92.503 Y68.385 E0.12467
G1 X94.374 Y68.965 E0.13309
G1 X96.098 Y69.593 E0.12467
G1 X97.902 Y70.356 E0.13309
G1 X99.556 Y71.153 E0.12467
G1 X101.275 Y72.092 E0.13309
G1 X102.840 Y73.049 E0.12467
G1 X104.457 Y74.155 E0.13309
G1 X105.920 Y75.263 E0.12467
G1 X107.419 Y76.524 E0.13309
G1 X108.764 Y77.772 E0.12467
G1 X110.129 Y79.177 E0.13309
G1 X111.344 Y80.552 E0.12467
G1 X112.563 Y82.086 E0.13309
G1 X113.634 Y83.576 E0.12467
G1 X114.694 Y85.223 E0.13309
G1 X115.612 Y86.812 E0.12467
G1 X116.503 Y88.556 E0.13309
G1 X117.258 Y90.230 E0.12477
G1 X117.929 Y91.940 E0.12477
G1 X118.556 Y93.796 E0.13309
G1 X119.053 Y95.562 E0.12467
G1 X119.491 Y97.472 E0.13309
G1 X119.810 Y99.279 E0.12467
G1 X120.057 Y101.222 E0.13309
G1 X120.194 Y103.052 E0.12467
G1 X120.246 Y105.010 E0.13309
G1 X120.200 Y106.844 E0.12467
G1 X120.056 Y108.798 E0.13309
G1 X119.828 Y110.619 E0.12467
G1 X119.491 Y112.547 E0.13299
G1 X119.053 Y114.455 E0.13299
G1 X118.556 Y116.221 E0.12467
G1 X117.929 Y118.077 E0.13309
G1 X117.258 Y119.787 E0.12477
G1 X116.503 Y121.461 E0.12477
G1 X115.612 Y123.205 E0.13309
G1 X114.694 Y124.794 E0.12467
G1 X113.634 Y126.441 E0.13309
G1 X112.563 Y127.931 E0.12467
G1 X111.344 Y129.465 E0.13309
G1 X110.129 Y130.841 E0.12467
G1 X108.764 Y132.245 E0.13309
G1 X107.419 Y133.493 E0.12467
G1 X105.921 Y134.753 E0.13299
G1 X104.359 Y135.933 E0.13299
G1 X102.842 Y136.968 E0.12477
G1 X101.275 Y137.925 E0.12477
G1 X99.556 Y138.865 E0.13309
G1 X97.902 Y139.661 E0.12467
G1 X96.098 Y140.424 E0.13309
G1 X94.374 Y141.052 E0.12467
G1 X92.505 Y141.632 E0.13299
G1 X90.607 Y142.112 E0.13299
G1 X88.807 Y142.476 E0.12477
G1 X86.991 Y142.749 E0.12477
G1 X85.043 Y142.947 E0.13299
G1 X83.088 Y143.042 E0.13299
G1 X81.252 Y143.042 E0.12477
G1 X79.418 Y142.950 E0.12477
G1 X77.470 Y142.758 E0.13299
G1 X75.535 Y142.464 E0.13299
G1 X73.735 Y142.100 E0.12477
G1 X71.955 Y141.647 E0.12477
G1 X70.083 Y141.073 E0.13299
G1 X68.245 Y140.400 E0.13299
G1 X66.553 Y139.687 E0.12477
G1 X64.898 Y138.890 E0.12477
G1 X63.176 Y137.956 E0.13309
G1 X61.611 Y136.999 E0.12467
G1 X59.992 Y135.899 E0.13299
G1 X58.433 Y134.715 E0.13299
G1 X57.026 Y133.534 E0.12477
G1 X55.680 Y132.285 E0.12477
G1 X54.311 Y130.886 E0.13299
G1 X53.018 Y129.416 E0.13299
G1 X51.874 Y127.982 E0.12467
G1 X50.733 Y126.389 E0.13309
G1 X49.738 Y124.848 E0.12467
G1 X48.761 Y123.150 E0.13309
G1 X47.924 Y121.517 E0.12467
G1 X47.121 Y119.730 E0.13309
G1 X46.450 Y118.021 E0.12477
G1 X45.865 Y116.280 E0.12477
G1 X45.332 Y114.396 E0.13299
G1 X44.899 Y112.488 E0.13299
G1 X44.580 Y110.679 E0.12477
G1 X44.352 Y108.857 E0.12477
G1 X44.202 Y106.903 E0.13309
G1 X44.157 Y105.069 E0.12467
G1 X44.203 Y103.112 E0.13299
G1 X44.352 Y101.160 E0.13299
G1 X44.580 Y99.338 E0.12477
G1 X44.899 Y97.530 E0.12477
G1 X45.332 Y95.621 E0.13299
G1 X45.865 Y93.737 E0.13299
G1 X46.450 Y91.996 E0.12477
G1 X47.121 Y90.287 E0.12477
G1 X47.924 Y88.500 E0.13309
G1 X48.761 Y86.867 E0.12467
G1 X49.738 Y85.169 E0.13309
G1 X50.733 Y83.628 E0.12467
G1 X51.874 Y82.035 E0.13309
G1 X53.018 Y80.601 E0.12467
G1 X54.311 Y79.131 E0.13299
G1 X55.680 Y77.732 E0.13299
G1 X57.026 Y76.483 E0.12477
G1 X58.433 Y75.302 E0.12477
G1 X58.760 Y75.054 E0.02789
G1 X58.266 Y74.404 F10800.000
G1 F1200.000
G1 X59.515 Y73.455 E0.10656
G1 X61.168 Y72.331 E0.13580
G1 X62.768 Y71.353 E0.12744
G1 X64.526 Y70.399 E0.13586
G1 X66.216 Y69.586 E0.12744
G1 X68.060 Y68.812 E0.13586
G1 X69.822 Y68.170 E0.12744
G1 X71.734 Y67.583 E0.13586
G1 X73.553 Y67.120 E0.12750
G1 X75.392 Y66.749 E0.12750
G1 X77.369 Y66.448 E0.13586
G1 X79.235 Y66.261 E0.12744
G1 X81.231 Y66.158 E0.13580
G1 X83.230 Y66.161 E0.13580
G1 X85.104 Y66.255 E0.12744
G1 X87.093 Y66.457 E0.13586
G1 X88.948 Y66.736 E0.12744
G1 X90.907 Y67.135 E0.13586
G1 X92.725 Y67.598 E0.12744
G1 X94.635 Y68.191 E0.13586
G1 X96.398 Y68.832 E0.12744
G1 X98.239 Y69.612 E0.13586
G1 X99.929 Y70.425 E0.12744
G1 X101.684 Y71.384 E0.13586
G1 X103.284 Y72.363 E0.12744
G1 X104.935 Y73.491 E0.13586
G1 X106.430 Y74.624 E0.12744
G1 X107.960 Y75.912 E0.13586
G1 X109.335 Y77.188 E0.12744
G1 X110.729 Y78.621 E0.13586
G1 X111.970 Y80.028 E0.12744
G1 X113.215 Y81.593 E0.13586
G1 X114.310 Y83.116 E0.12744
G1 X115.392 Y84.797 E0.13586
G1 X116.330 Y86.422 E0.12744
G1 X117.239 Y88.202 E0.13586
G1 X118.011 Y89.913 E0.12750
G1 X118.697 Y91.660 E0.12750
G1 X119.337 Y93.555 E0.13586
G1 X119.845 Y95.360 E0.12744
G1 X120.293 Y97.309 E0.13586
G1 X120.618 Y99.156 E0.12744
G1 X120.870 Y101.140 E0.13586
G1 X121.010 Y103.011 E0.12744
G1 X121.063 Y105.009 E0.13586
G1 X121.016 Y106.885 E0.12744
G1 X120.870 Y108.879 E0.13586
G1 X120.636 Y110.740 E0.12744
G1 X120.292 Y112.709 E0.13580
G1 X119.845 Y114.657 E0.13580
G1 X119.337 Y116.463 E0.12744
G1 X118.697 Y118.357 E0.13586
G1 X118.011 Y120.104 E0.12750
G1 X117.239 Y121.815 E0.12750
G1 X116.330 Y123.596 E0.13586
G1 X115.392 Y125.220 E0.12744
G1 X114.310 Y126.901 E0.13586
G1 X113.215 Y128.424 E0.12744
G1 X111.970 Y129.990 E0.13586
G1 X110.729 Y131.396 E0.12744
G1 X109.335 Y132.830 E0.13586
G1 X107.960 Y134.105 E0.12744
G1 X106.431 Y135.392 E0.13580
G1 X104.836 Y136.597 E0.13580
G1 X103.285 Y137.654 E0.12750
G1 X101.684 Y138.633 E0.12750
G1 X99.929 Y139.592 E0.13586
G1 X98.239 Y140.405 E0.12744
G1 X96.398 Y141.185 E0.13586
G1 X94.635 Y141.827 E0.12744
G1 X92.726 Y142.419 E0.13580
G1 X90.788 Y142.909 E0.13580
G1 X88.949 Y143.281 E0.12750
G1 X87.093 Y143.560 E0.12750
G1 X85.105 Y143.762 E0.13580
G1 X83.108 Y143.859 E0.13580
G1 X81.231 Y143.859 E0.12750
G1 X79.357 Y143.765 E0.12750
G1 X77.368 Y143.569 E0.13580
G1 X75.392 Y143.269 E0.13580
G1 X73.553 Y142.897 E0.12750
G1 X71.734 Y142.434 E0.12750
G1 X69.823 Y141.847 E0.13580
G1 X67.946 Y141.161 E0.13580
G1 X66.217 Y140.432 E0.12750
G1 X64.526 Y139.618 E0.12750
G1 X62.768 Y138.664 E0.13586
G1 X61.168 Y137.686 E0.12744
G1 X59.515 Y136.562 E0.13580
G1 X57.923 Y135.353 E0.13580
G1 X56.486 Y134.147 E0.12750
G1 X55.110 Y132.871 E0.12750
G1 X53.712 Y131.442 E0.13580
G1 X52.392 Y129.941 E0.13580
G1 X51.222 Y128.475 E0.12744
G1 X50.057 Y126.849 E0.13586
G1 X49.040 Y125.274 E0.12744
G1 X48.043 Y123.540 E0.13586
G1 X47.187 Y121.871 E0.12744
G1 X46.367 Y120.047 E0.13586
G1 X45.682 Y118.300 E0.12750
G1 X45.084 Y116.521 E0.12750
G1 X44.540 Y114.598 E0.13580
G1 X44.098 Y112.649 E0.13580
G1 X43.772 Y110.801 E0.12750
G1 X43.539 Y108.939 E0.12750
G1 X43.386 Y106.945 E0.13586
G1 X43.339 Y105.070 E0.12744
G1 X43.386 Y103.071 E0.13580
G1 X43.539 Y101.078 E0.13580
G1 X43.772 Y99.216 E0.12750
G1 X44.098 Y97.368 E0.12750
G1 X44.540 Y95.419 E0.13580
G1 X45.084 Y93.496 E0.13580
G1 X45.682 Y91.717 E0.12750
G1 X46.367 Y89.970 E0.12750
G1 X47.187 Y88.146 E0.13586
G1 X48.043 Y86.477 E0.12744
G1 X49.040 Y84.743 E0.13586
G1 X50.057 Y83.168 E0.12744
G1 X51.222 Y81.542 E0.13586
G1 X52.392 Y80.076 E0.12744
G1 X53.712 Y78.575 E0.13580
G1 X55.110 Y77.147 E0.13580
G1 X56.486 Y75.870 E0.12750
G1 X57.923 Y74.664 E0.12750
G1 X58.170 Y74.476 E0.02108
G1 X57.676 Y73.826 F10800.000
G1 F1200.000
G1 X59.037 Y72.791 E0.11618
G1 X60.725 Y71.644 E0.13861
G1 X62.360 Y70.645 E0.13021
G1 X64.154 Y69.672 E0.13863
G1 X65.880 Y68.840 E0.13021
G1 X67.762 Y68.051 E0.13863
G1 X69.563 Y67.395 E0.13021
G1 X71.513 Y66.797 E0.13863
G1 X73.371 Y66.324 E0.13023
G1 X75.250 Y65.944 E0.13023
G1 X77.267 Y65.637 E0.13863
G1 X79.174 Y65.446 E0.13021
G1 X81.211 Y65.341 E0.13861
G1 X83.251 Y65.344 E0.13861
G1 X85.165 Y65.440 E0.13021
G1 X87.195 Y65.646 E0.13863
G1 X89.090 Y65.931 E0.13021
G1 X91.090 Y66.339 E0.13863
G1 X92.947 Y66.812 E0.13021
G1 X94.896 Y67.416 E0.13863
G1 X96.697 Y68.072 E0.13021
G1 X98.576 Y68.867 E0.13863
G1 X100.302 Y69.698 E0.13021
G1 X102.093 Y70.677 E0.13863
G1 X103.728 Y71.676 E0.13021
G1 X105.412 Y72.828 E0.13863
G1 X106.940 Y73.985 E0.13021
G1 X108.501 Y75.299 E0.13863
G1 X109.906 Y76.603 E0.13021
G1 X111.329 Y78.066 E0.13863
G1 X112.597 Y79.503 E0.13021
G1 X113.866 Y81.100 E0.13863
G1 X114.985 Y82.656 E0.13021
G1 X116.090 Y84.372 E0.13863
G1 X117.048 Y86.031 E0.13021
G1 X117.976 Y87.848 E0.13863
G1 X118.764 Y89.596 E0.13023
G1 X119.465 Y91.380 E0.13023
G1 X120.117 Y93.313 E0.13863
G1 X120.637 Y95.158 E0.13021
G1 X121.094 Y97.146 E0.13863
G1 X121.426 Y99.034 E0.13021
G1 X121.683 Y101.058 E0.13863
G1 X121.826 Y102.969 E0.13021
G1 X121.880 Y105.009 E0.13863
G1 X121.832 Y106.925 E0.13021
G1 X121.683 Y108.960 E0.13863
G1 X121.445 Y110.861 E0.13021
G1 X121.093 Y112.871 E0.13861
G1 X120.637 Y114.859 E0.13861
G1 X120.117 Y116.704 E0.13021
G1 X119.465 Y118.637 E0.13863
G1 X118.764 Y120.422 E0.13023
G1 X117.976 Y122.169 E0.13023
G1 X117.048 Y123.986 E0.13863
G1 X116.090 Y125.646 E0.13021
G1 X114.985 Y127.361 E0.13863
G1 X113.866 Y128.917 E0.13021
G1 X112.597 Y130.515 E0.13863
G1 X111.329 Y131.951 E0.13021
G1 X109.906 Y133.414 E0.13863
G1 X108.501 Y134.718 E0.13021
G1 X106.940 Y136.032 E0.13861
G1 X105.312 Y137.261 E0.13861
G1 X103.729 Y138.341 E0.13023
G1 X102.093 Y139.340 E0.13023
G1 X100.302 Y140.319 E0.13863
G1 X98.576 Y141.150 E0.13021
G1 X96.697 Y141.946 E0.13863
G1 X94.896 Y142.601 E0.13021
G1 X92.947 Y143.205 E0.13861
G1 X90.969 Y143.706 E0.13861
G1 X89.091 Y144.086 E0.13023
G1 X87.195 Y144.371 E0.13023
G1 X85.166 Y144.577 E0.13861
G1 X83.128 Y144.676 E0.13861
G1 X81.211 Y144.676 E0.13023
G1 X79.297 Y144.581 E0.13023
G1 X77.266 Y144.380 E0.13861
G1 X75.250 Y144.073 E0.13861
G1 X73.371 Y143.694 E0.13023
G1 X71.513 Y143.221 E0.13023
G1 X69.563 Y142.622 E0.13861
G1 X67.647 Y141.922 E0.13861
M73 Q0 S226
G1 X65.881 Y141.177 E0.13023
G1 X64.154 Y140.345 E0.13023
M73 P0 R226
G1 X62.360 Y139.372 E0.13863
G1 X60.725 Y138.373 E0.13021
G1 X59.037 Y137.226 E0.13861
G1 X57.413 Y135.992 E0.13861
G1 X55.945 Y134.760 E0.13023
G1 X54.540 Y133.456 E0.13023
G1 X53.113 Y131.998 E0.13861
G1 X51.765 Y130.466 E0.13861
G1 X50.570 Y128.968 E0.13021
G1 X49.382 Y127.309 E0.13863
G1 X48.342 Y125.699 E0.13021
G1 X47.324 Y123.931 E0.13863
G1 X46.450 Y122.225 E0.13021
G1 X45.614 Y120.364 E0.13863
G1 X44.913 Y118.580 E0.13023
G1 X44.303 Y116.763 E0.13023
G1 X43.748 Y114.800 E0.13861
G1 X43.297 Y112.810 E0.13861
G1 X42.964 Y110.923 E0.13023
G1 X42.725 Y109.021 E0.13023
G1 X42.570 Y106.986 E0.13863
G1 X42.522 Y105.070 E0.13021
G1 X42.570 Y103.031 E0.13861
G1 X42.725 Y100.996 E0.13861
G1 X42.964 Y99.095 E0.13023
G1 X43.297 Y97.207 E0.13023
G1 X43.748 Y95.217 E0.13861
G1 X44.303 Y93.254 E0.13861
G1 X44.913 Y91.437 E0.13023
G1 X45.614 Y89.653 E0.13023
G1 X46.450 Y87.792 E0.13863
G1 X47.324 Y86.086 E0.13021
G1 X48.342 Y84.318 E0.13863
G1 X49.382 Y82.708 E0.13021
G1 X50.570 Y81.049 E0.13863
G1 X51.765 Y79.551 E0.13021
G1 X53.113 Y78.019 E0.13861
