; generated by PrusaSlicer 2.1.0+win64 on 2019-12-02 at 03:07:47 UTC

; 

; external perimeters extrusion width = 0.60mm
; perimeters extrusion width = 0.50mm
; infill extrusion width = 0.50mm
; solid infill extrusion width = 0.50mm
; top infill extrusion width = 0.45mm
; first layer extrusion width = 0.42mm

M73 P0 R151
M73 Q0 S153
M201 X1000 Y1000 Z1000 E5000 ; sets maximum accelerations, mm/sec^2
M203 X200 Y200 Z12 E120 ; sets maximum feedrates, mm/sec
M204 P1250 R1250 T1250 ; sets acceleration (P, T) and retract acceleration (R), mm/sec^2
M205 X8.00 Y8.00 Z0.40 E1.50 ; sets the jerk limits, mm/sec
M205 S0 T0 ; sets the minimum extruding and travel feed rate, mm/sec
M107
M862.3 P "MK3S" ; printer model check
M862.1 P0.4 ; nozzle diameter check
M115 U3.8.1 ; tell printer latest fw version
G90 ; use absolute coordinates
M83 ; extruder relative mode
M104 S240 ; set extruder temp
M140 S85 ; set bed temp
M190 S85 ; wait for bed temp
M109 S240 ; wait for extruder temp
G28 W ; home all without mesh bed level
G80 ; mesh bed leveling
G1 Y-3.0 F1000.0 ; go outside print area
G92 E0.0
G1 X60.0 E9.0 F1000.0 ; intro line
M73 Q0 S153
M73 P0 R151
G1 X100.0 E12.5 F1000.0 ; intro line
G92 E0.0
M221 S95
G21 ; set units to millimeters
G90 ; use absolute coordinates
M83 ; use relative distances for extrusion
M900 K45 ; Filament gcode
;BEFORE_LAYER_CHANGE
G92 E0.0
;0.2


G1 E-1.40000 F2100.00000
G1 Z0.200 F10800.000
;AFTER_LAYER_CHANGE
;0.2
G1 Z0.400
G1 X72.251 Y31.867
G1 Z0.200
G1 E1.40000 F2100.00000
M204 S1000
G1 F1200
G1 X177.357 Y31.831 E3.29554
G1 X178.040 Y31.941 E0.02168
G1 X178.654 Y32.259 E0.02168
G1 X209.662 Y55.559 E1.21612
G1 X212.241 Y57.582 E0.10279
G1 X214.569 Y59.926 E0.10356
G1 X216.674 Y62.675 E0.10857
G1 X218.294 Y65.431 E0.10025
G1 X219.568 Y68.371 E0.10046
G1 X220.528 Y71.623 E0.10629
G1 X221.068 Y74.988 E0.10687
G1 X221.177 Y78.241 E0.10207
G1 X221.172 Y152.399 E2.32514
G1 X220.867 Y155.627 E0.10169
G1 X220.179 Y158.757 E0.10047
G1 X219.022 Y162.033 E0.10892
G1 X217.522 Y165.000 E0.10424
G1 X215.735 Y167.659 E0.10046
G1 X213.441 Y170.302 E0.10972
G1 X210.971 Y172.500 E0.10367
G1 X208.336 Y174.317 E0.10035
G1 X205.257 Y175.925 E0.10892
G1 X201.996 Y177.110 E0.10880
G1 X198.876 Y177.827 E0.10036
G1 X195.580 Y178.167 E0.10390
G1 X54.527 Y178.169 E4.42261
G1 X50.991 Y177.801 E0.11147
G1 X47.867 Y177.074 E0.10058
G1 X44.743 Y175.925 E0.10436
G1 X41.783 Y174.394 E0.10447
G1 X39.141 Y172.582 E0.10046
G1 X36.533 Y170.276 E0.10915
G1 X34.348 Y167.775 E0.10413
G1 X32.553 Y165.120 E0.10047
G1 X30.978 Y162.032 E0.10869
G1 X29.821 Y158.757 E0.10892
G1 X29.132 Y155.627 E0.10047
G1 X28.830 Y152.423 E0.10092
G1 X28.823 Y78.239 E2.32597
G1 X28.931 Y74.995 E0.10177
G1 X29.430 Y71.822 E0.10069
G1 X30.434 Y68.368 E0.11279
G1 X31.708 Y65.428 E0.10048
G1 X33.400 Y62.557 E0.10447
G1 X35.434 Y59.923 E0.10436
G1 X37.708 Y57.630 E0.10127
G1 X40.337 Y55.559 E0.10492
G1 X71.338 Y32.265 E1.21581
G1 X71.773 Y32.013 E0.01578
G1 X72.193 Y31.884 E0.01378
G1 F8640
G1 X77.953 Y31.881 E-1.33000
G1 E-0.07000 F2100.00000
G1 Z0.400 F10800.000
G1 X84.081 Y111.263
G1 Z0.200
G1 E1.40000 F2100.00000
G1 F1200
G1 X86.181 Y111.163 E0.06591
G1 X88.296 Y111.467 E0.06700
G1 X90.316 Y112.166 E0.06700
G1 X92.166 Y113.234 E0.06700
G1 X93.781 Y114.634 E0.06700
G1 X95.102 Y116.313 E0.06700
G1 X96.081 Y118.213 E0.06700
G1 X96.683 Y120.263 E0.06700
G1 X96.886 Y122.390 E0.06700
G1 X96.683 Y124.517 E0.06700
G1 X96.081 Y126.567 E0.06700
G1 X95.102 Y128.467 E0.06700
G1 X93.781 Y130.146 E0.06700
G1 X92.166 Y131.546 E0.06700
G1 X90.316 Y132.614 E0.06700
G1 X88.296 Y133.313 E0.06700
G1 X86.181 Y133.617 E0.06700
G1 X84.047 Y133.515 E0.06700
G1 X81.970 Y133.012 E0.06700
G1 X80.027 Y132.124 E0.06700
G1 X78.286 Y130.884 E0.06700
G1 X76.811 Y129.338 E0.06700
G1 X75.656 Y127.540 E0.06700
G1 X74.862 Y125.557 E0.06700
G1 X74.458 Y123.458 E0.06700
G1 X74.458 Y121.322 E0.06700
G1 X74.862 Y119.223 E0.06700
G1 X75.656 Y117.240 E0.06700
G1 X76.811 Y115.442 E0.06700
G1 X78.286 Y113.896 E0.06700
G1 X80.027 Y112.656 E0.06700
G1 X81.971 Y111.768 E0.06703
G1 X84.023 Y111.277 E0.06616
G1 X84.111 Y111.644 F10800.000
G1 F1200
G1 X86.163 Y111.541 E0.06443
G1 X88.207 Y111.835 E0.06474
G1 X90.158 Y112.511 E0.06474
G1 X91.946 Y113.543 E0.06474
G1 X93.507 Y114.895 E0.06474
G1 X94.783 Y116.518 E0.06474
G1 X95.729 Y118.353 E0.06474
G1 X96.311 Y120.335 E0.06474
G1 X96.507 Y122.390 E0.06474
G1 X96.311 Y124.445 E0.06474
G1 X95.729 Y126.427 E0.06474
G1 X94.783 Y128.262 E0.06474
G1 X93.507 Y129.885 E0.06474
G1 X91.946 Y131.237 E0.06474
G1 X90.158 Y132.269 E0.06474
G1 X88.207 Y132.945 E0.06474
G1 X86.163 Y133.239 E0.06474
G1 X84.101 Y133.140 E0.06474
G1 X82.094 Y132.654 E0.06474
G1 X80.216 Y131.796 E0.06474
G1 X78.534 Y130.598 E0.06474
G1 X77.109 Y129.104 E0.06474
G1 X75.993 Y127.367 E0.06474
G1 X75.225 Y125.450 E0.06474
G1 X74.835 Y123.422 E0.06474
G1 X74.835 Y121.358 E0.06474
G1 X75.225 Y119.330 E0.06474
G1 X75.993 Y117.413 E0.06474
G1 X77.109 Y115.676 E0.06474
G1 X78.534 Y114.182 E0.06474
G1 X80.216 Y112.984 E0.06474
G1 X82.094 Y112.126 E0.06475
G1 X84.053 Y111.658 E0.06313
G1 X84.259 Y111.272 F10800.000
G1 F8640
G1 X86.163 Y111.541 E-0.48810
G1 X88.207 Y111.835 E-0.47677
G1 X89.701 Y112.352 E-0.36513
G1 E-0.07000 F2100.00000
G1 Z0.400 F10800.000
G1 X153.165 Y121.322
G1 Z0.200
G1 E1.40000 F2100.00000
G1 F1200
G1 X153.569 Y119.223 E0.06700
G1 X154.363 Y117.240 E0.06700
G1 X155.519 Y115.442 E0.06700
G1 X156.993 Y113.896 E0.06700
G1 X158.734 Y112.656 E0.06700
G1 X160.678 Y111.768 E0.06703
G1 X162.789 Y111.263 E0.06804
G1 X164.888 Y111.163 E0.06591
G1 X167.003 Y111.467 E0.06700
G1 X169.023 Y112.166 E0.06700
G1 X170.873 Y113.234 E0.06700
G1 X172.488 Y114.634 E0.06700
G1 X173.809 Y116.313 E0.06700
G1 X174.788 Y118.213 E0.06700
G1 X175.390 Y120.263 E0.06700
G1 X175.593 Y122.390 E0.06700
G1 X175.390 Y124.517 E0.06700
G1 X174.788 Y126.567 E0.06700
G1 X173.809 Y128.467 E0.06700
G1 X172.488 Y130.146 E0.06700
G1 X170.873 Y131.546 E0.06700
G1 X169.023 Y132.614 E0.06700
G1 X167.003 Y133.313 E0.06700
G1 X164.888 Y133.617 E0.06700
G1 X162.754 Y133.515 E0.06700
G1 X160.677 Y133.012 E0.06700
G1 X158.734 Y132.124 E0.06700
G1 X156.993 Y130.884 E0.06700
G1 X155.519 Y129.338 E0.06700
G1 X154.363 Y127.540 E0.06700
G1 X153.569 Y125.557 E0.06700
G1 X153.165 Y123.458 E0.06700
G1 X153.165 Y121.382 E0.06512
G1 X153.542 Y121.382 F10800.000
G1 F1200
G1 X153.933 Y119.330 E0.06548
G1 X154.700 Y117.413 E0.06474
G1 X155.816 Y115.676 E0.06474
G1 X157.241 Y114.182 E0.06474
G1 X158.923 Y112.984 E0.06474
G1 X160.802 Y112.126 E0.06475
G1 X162.842 Y111.638 E0.06578
G1 X164.870 Y111.541 E0.06367
G1 X166.914 Y111.835 E0.06474
G1 X168.865 Y112.511 E0.06474
G1 X170.654 Y113.543 E0.06474
G1 X172.214 Y114.895 E0.06474
G1 X173.490 Y116.518 E0.06474
G1 X174.437 Y118.353 E0.06474
G1 X175.018 Y120.335 E0.06474
G1 X175.215 Y122.390 E0.06474
G1 X175.018 Y124.445 E0.06474
G1 X174.437 Y126.427 E0.06474
G1 X173.490 Y128.262 E0.06474
G1 X172.214 Y129.885 E0.06474
G1 X170.654 Y131.237 E0.06474
G1 X168.865 Y132.269 E0.06474
G1 X166.914 Y132.945 E0.06474
G1 X164.870 Y133.239 E0.06474
G1 X162.808 Y133.140 E0.06474
G1 X160.801 Y132.654 E0.06474
G1 X158.923 Y131.796 E0.06474
G1 X157.241 Y130.598 E0.06474
G1 X155.816 Y129.104 E0.06474
G1 X154.700 Y127.367 E0.06474
G1 X153.933 Y125.450 E0.06474
G1 X153.542 Y123.422 E0.06474
G1 X153.542 Y121.442 E0.06211
G1 X153.216 Y121.150 F10800.000
G1 F8640
G1 X153.933 Y119.330 E-0.49583
G1 X154.700 Y117.413 E-0.47677
G1 X155.537 Y116.111 E-0.35741
G1 E-0.07000 F2100.00000
G1 Z0.400 F10800.000
G1 X98.059 Y134.464
G1 Z0.200
G1 E1.40000 F2100.00000
G1 F1200
G1 X104.291 Y135.941 E0.20080
G1 X110.157 Y136.976 E0.18678
G1 X116.074 Y137.668 E0.18678
G1 X122.021 Y138.014 E0.18678
G1 X127.979 Y138.014 E0.18679
G1 X134.024 Y137.656 E0.18987
G1 X139.843 Y136.976 E0.18368
G1 X145.709 Y135.941 E0.18678
G1 X151.941 Y134.464 E0.20080
G1 X151.941 Y108.587 E0.81136
G1 X176.767 Y108.587 E0.77840
G1 X176.767 Y135.283 E0.83704
G1 X180.027 Y132.466 E0.13509
G1 X182.514 Y130.809 E0.09371
G1 X185.188 Y129.476 E0.09371
G1 X188.008 Y128.486 E0.09371
G1 X190.930 Y127.856 E0.09371
G1 X193.907 Y127.596 E0.09371
G1 X196.894 Y127.708 E0.09371
G1 X199.843 Y128.193 E0.09371
G1 X202.708 Y129.041 E0.09370
G1 X205.446 Y130.241 E0.09371
G1 X208.012 Y131.772 E0.09371
G1 X210.368 Y133.612 E0.09371
G1 X212.475 Y135.731 E0.09371
G1 X214.302 Y138.096 E0.09371
G1 X215.819 Y140.671 E0.09371
G1 X217.003 Y143.415 E0.09371
G1 X217.836 Y146.285 E0.09371
G1 X218.304 Y149.237 E0.09371
M73 Q0 S152
G1 X218.401 Y152.224 E0.09371
G1 X218.124 Y155.200 E0.09371
G1 X217.478 Y158.117 E0.09371
G1 X216.473 Y160.932 E0.09371
G1 X215.125 Y163.599 E0.09371
M73 P0 R150
G1 X213.454 Y166.078 E0.09371
G1 X211.488 Y168.328 E0.09371
G1 X209.294 Y170.282 E0.09212
G1 X206.793 Y172.010 E0.09529
G1 X204.139 Y173.383 E0.09369
G1 X201.334 Y174.414 E0.09371
G1 X198.423 Y175.088 E0.09371
G1 X195.450 Y175.393 E0.09371
G1 X192.462 Y175.325 E0.09371
G1 X189.506 Y174.884 E0.09371
G1 X186.628 Y174.079 E0.09371
G1 X183.873 Y172.920 E0.09371
G1 X181.284 Y171.428 E0.09371
G1 X178.901 Y169.623 E0.09371
G1 X176.762 Y167.536 E0.09371
G1 X174.901 Y165.198 E0.09371
G1 X173.345 Y162.646 E0.09371
G1 X172.002 Y159.658 E0.10273
G1 X165.337 Y157.299 E0.22167
G1 X158.674 Y155.332 E0.21782
G1 X152.139 Y153.764 E0.21071
G1 X145.420 Y152.519 E0.21427
G1 X138.644 Y151.628 E0.21427
G1 X131.832 Y151.092 E0.21427
G1 X125.000 Y150.913 E0.21428
G1 X118.055 Y151.100 E0.21782
G1 X111.356 Y151.627 E0.21071
G1 X104.580 Y152.519 E0.21427
G1 X97.861 Y153.764 E0.21427
G1 X91.215 Y155.359 E0.21427
G1 X84.663 Y157.299 E0.21427
G1 X77.998 Y159.658 E0.22166
G1 X76.655 Y162.646 E0.10273
G1 X75.099 Y165.198 E0.09371
G1 X73.238 Y167.536 E0.09371
G1 X71.099 Y169.623 E0.09371
G1 X68.716 Y171.427 E0.09371
G1 X66.127 Y172.920 E0.09371
G1 X63.372 Y174.079 E0.09371
G1 X60.494 Y174.884 E0.09371
G1 X57.538 Y175.325 E0.09371
G1 X54.550 Y175.393 E0.09371
G1 X51.577 Y175.088 E0.09371
G1 X48.715 Y174.426 E0.09212
G1 X45.860 Y173.383 E0.09529
G1 X43.206 Y172.009 E0.09369
G1 X40.744 Y170.316 E0.09371
G1 X38.512 Y168.328 E0.09371
G1 X36.546 Y166.078 E0.09371
G1 X34.903 Y163.641 E0.09212
G1 X33.527 Y160.932 E0.09529
G1 X32.522 Y158.118 E0.09369
G1 X31.887 Y155.249 E0.09212
G1 X31.599 Y152.223 E0.09529
G1 X31.696 Y149.237 E0.09369
G1 X32.164 Y146.285 E0.09371
G1 X32.997 Y143.415 E0.09371
G1 X34.181 Y140.671 E0.09371
G1 X35.698 Y138.096 E0.09371
G1 X37.494 Y135.771 E0.09212
G1 X39.633 Y133.611 E0.09529
G1 X41.988 Y131.772 E0.09369
G1 X44.554 Y130.241 E0.09371
G1 X47.292 Y129.041 E0.09371
G1 X50.157 Y128.193 E0.09371
G1 X53.057 Y127.717 E0.09212
G1 X56.093 Y127.596 E0.09529
G1 X59.070 Y127.856 E0.09369
G1 X61.991 Y128.486 E0.09371
G1 X64.812 Y129.476 E0.09371
G1 X67.486 Y130.809 E0.09371
G1 X69.973 Y132.466 E0.09371
G1 X73.234 Y135.283 E0.13509
G1 X73.234 Y108.587 E0.83704
G1 X98.059 Y108.587 E0.77840
G1 X98.059 Y134.404 E0.80948
G1 X98.436 Y134.166 F10800.000
G1 F1200
G1 X104.367 Y135.572 E0.19111
G1 X110.212 Y136.603 E0.18609
G1 X116.107 Y137.292 E0.18609
G1 X122.032 Y137.637 E0.18609
G1 X127.968 Y137.637 E0.18610
G1 X133.991 Y137.281 E0.18918
G1 X139.788 Y136.603 E0.18300
G1 X145.633 Y135.572 E0.18609
G1 X151.564 Y134.166 E0.19111
G1 X151.564 Y108.210 E0.81383
G1 X177.144 Y108.210 E0.80204
G1 X177.144 Y134.459 E0.82302
G1 X179.798 Y132.165 E0.10999
G1 X182.324 Y130.482 E0.09519
G1 X185.041 Y129.128 E0.09519
G1 X187.906 Y128.123 E0.09519
G1 X190.874 Y127.483 E0.09519
G1 X193.898 Y127.218 E0.09519
G1 X196.931 Y127.332 E0.09519
G1 X199.927 Y127.824 E0.09519
G1 X202.838 Y128.686 E0.09519
G1 X205.619 Y129.905 E0.09519
G1 X208.226 Y131.460 E0.09519
G1 X210.618 Y133.329 E0.09519
G1 X212.759 Y135.482 E0.09519
G1 X214.615 Y137.884 E0.09519
G1 X216.156 Y140.500 E0.09519
G1 X217.359 Y143.287 E0.09519
G1 X218.205 Y146.203 E0.09519
G1 X218.681 Y149.201 E0.09519
G1 X218.778 Y152.235 E0.09519
G1 X218.497 Y155.258 E0.09519
G1 X217.841 Y158.222 E0.09519
G1 X216.820 Y161.081 E0.09519
G1 X215.451 Y163.790 E0.09519
G1 X213.754 Y166.308 E0.09519
G1 X211.756 Y168.594 E0.09519
G1 X209.527 Y170.579 E0.09359
G1 X206.988 Y172.334 E0.09677
G1 X204.292 Y173.729 E0.09518
G1 X201.442 Y174.776 E0.09519
G1 X198.485 Y175.461 E0.09519
G1 X195.465 Y175.770 E0.09519
G1 X192.430 Y175.701 E0.09519
G1 X189.427 Y175.254 E0.09519
G1 X186.503 Y174.436 E0.09519
G1 X183.705 Y173.259 E0.09519
G1 X181.075 Y171.742 E0.09519
G1 X178.655 Y169.910 E0.09519
G1 X176.482 Y167.789 E0.09519
G1 X174.591 Y165.415 E0.09519
G1 X173.011 Y162.822 E0.09519
G1 X171.724 Y159.959 E0.09841
G1 X165.221 Y157.658 E0.21630
G1 X158.577 Y155.697 E0.21720
G1 X152.061 Y154.133 E0.21010
G1 X145.361 Y152.892 E0.21365
G1 X138.605 Y152.003 E0.21365
G1 X131.812 Y151.468 E0.21365
G1 X125.000 Y151.290 E0.21366
G1 X118.075 Y151.477 E0.21720
G1 X111.395 Y152.003 E0.21010
G1 X104.639 Y152.892 E0.21365
G1 X97.939 Y154.133 E0.21365
G1 X91.313 Y155.723 E0.21365
G1 X84.779 Y157.658 E0.21365
G1 X78.276 Y159.959 E0.21630
G1 X76.989 Y162.822 E0.09841
G1 X75.409 Y165.414 E0.09519
G1 X73.518 Y167.789 E0.09519
G1 X71.345 Y169.910 E0.09519
G1 X68.925 Y171.742 E0.09519
G1 X66.295 Y173.259 E0.09519
G1 X63.497 Y174.436 E0.09519
G1 X60.573 Y175.254 E0.09519
G1 X57.570 Y175.701 E0.09519
G1 X54.535 Y175.770 E0.09519
G1 X51.515 Y175.461 E0.09519
G1 X48.607 Y174.788 E0.09359
G1 X45.708 Y173.728 E0.09677
G1 X43.012 Y172.334 E0.09518
G1 X40.511 Y170.613 E0.09519
G1 X38.244 Y168.594 E0.09519
G1 X36.246 Y166.308 E0.09519
G1 X34.578 Y163.833 E0.09359
G1 X33.180 Y161.081 E0.09677
G1 X32.159 Y158.222 E0.09518
G1 X31.514 Y155.308 E0.09359
G1 X31.222 Y152.235 E0.09677
G1 X31.319 Y149.201 E0.09518
G1 X31.795 Y146.203 E0.09519
G1 X32.641 Y143.287 E0.09519
G1 X33.844 Y140.500 E0.09519
G1 X35.385 Y137.884 E0.09519
G1 X37.210 Y135.522 E0.09359
G1 X39.382 Y133.329 E0.09677
G1 X41.774 Y131.460 E0.09518
G1 X44.381 Y129.905 E0.09519
G1 X47.162 Y128.686 E0.09519
G1 X50.073 Y127.824 E0.09519
G1 X53.018 Y127.341 E0.09359
G1 X56.102 Y127.218 E0.09677
G1 X59.126 Y127.483 E0.09518
G1 X62.094 Y128.123 E0.09519
G1 X64.959 Y129.128 E0.09519
G1 X67.676 Y130.482 E0.09519
G1 X70.202 Y132.165 E0.09519
G1 X72.856 Y134.459 E0.10999
G1 X72.856 Y108.210 E0.82302
G1 X98.436 Y108.210 E0.80204
G1 X98.436 Y134.106 E0.81195
G1 X98.478 Y134.564 F10800.000
G1 X97.946 Y133.829
G1 F1200
G1 X94.195 Y130.078 E0.16672
G1 X94.430 Y129.779 E0.01196
G1 X97.777 Y133.125 E0.14872
G1 X97.777 Y132.591 E0.01680
G1 X94.665 Y129.479 E0.13827
G1 X94.901 Y129.180 E0.01196
G1 X97.777 Y132.056 E0.12781
G1 X97.777 Y131.522 E0.01680
G1 X95.136 Y128.881 E0.11736
G1 X95.364 Y128.575 E0.01200
G1 X97.777 Y130.987 E0.10721
G1 X97.777 Y130.453 E0.01680
G1 X95.546 Y128.222 E0.09913
G1 X95.728 Y127.870 E0.01247
G1 X97.777 Y129.918 E0.09105
G1 X97.777 Y129.384 E0.01680
G1 X95.910 Y127.517 E0.08297
G1 X96.091 Y127.164 E0.01247
G1 X97.777 Y128.849 E0.07489
G1 X97.777 Y128.315 E0.01680
G1 X96.273 Y126.812 E0.06681
G1 X96.345 Y126.673 E0.00490
G1 X96.418 Y126.422 E0.00821
G1 X97.777 Y127.780 E0.06036
G1 X97.777 Y127.246 E0.01680
G1 X96.540 Y126.009 E0.05497
G1 X96.661 Y125.596 E0.01353
G1 X97.777 Y126.711 E0.04958
G1 X97.777 Y126.177 E0.01680
G1 X96.782 Y125.183 E0.04418
G1 X96.904 Y124.770 E0.01353
G1 X97.777 Y125.643 E0.03879
G1 X97.777 Y125.108 E0.01680
G1 X96.986 Y124.318 E0.03513
G1 X97.033 Y123.830 E0.01540
G1 X97.777 Y124.574 E0.03306
G1 X97.777 Y124.039 E0.01680
G1 X97.079 Y123.342 E0.03098
G1 X97.126 Y122.854 E0.01540
G1 X97.777 Y123.505 E0.02891
G1 X97.777 Y122.970 E0.01680
G1 X97.167 Y122.361 E0.02707
G1 X97.111 Y121.770 E0.01865
G1 X97.777 Y122.436 E0.02958
G1 X97.777 Y121.901 E0.01680
G1 X97.055 Y121.179 E0.03208
G1 X96.998 Y120.588 E0.01865
G1 X97.777 Y121.367 E0.03459
G1 X97.777 Y120.832 E0.01680
G1 X96.882 Y119.938 E0.03973
G1 X96.660 Y119.182 E0.02478
G1 X97.777 Y120.298 E0.04961
G1 X97.777 Y119.763 E0.01680
G1 X96.438 Y118.425 E0.05948
G1 X96.345 Y118.107 E0.01041
G1 X96.015 Y117.467 E0.02262
G1 X97.946 Y119.399 E0.08583
G1 F8640
G1 X96.015 Y117.467 E-0.63064
G1 X96.345 Y118.107 E-0.16617
