; generated by PrusaSlicer 2.1.0+win64 on 2019-12-02 at 02:44:29 UTC

; 

; external perimeters extrusion width = 0.60mm
; perimeters extrusion width = 0.50mm
; infill extrusion width = 0.50mm
; solid infill extrusion width = 0.50mm
; top infill extrusion width = 0.45mm
; first layer extrusion width = 0.42mm

M73 P0 R23
M73 Q0 S23
M201 X1000 Y1000 Z1000 E5000 ; sets maximum accelerations, mm/sec^2
M203 X200 Y200 Z12 E120 ; sets maximum feedrates, mm/sec
M204 P1250 R1250 T1250 ; sets acceleration (P, T) and retract acceleration (R), mm/sec^2
M205 X8.00 Y8.00 Z0.40 E1.50 ; sets the jerk limits, mm/sec
M205 S0 T0 ; sets the minimum extruding and travel feed rate, mm/sec
M107
M862.3 P "MK3S" ; printer model check
M862.1 P0.4 ; nozzle diameter check
M115 U3.8.1 ; tell printer latest fw version
G90 ; use absolute coordinates
M83 ; extruder relative mode
M104 S240 ; set extruder temp
M140 S85 ; set bed temp
M190 S85 ; wait for bed temp
M109 S240 ; wait for extruder temp
G28 W ; home all without mesh bed level
G80 ; mesh bed leveling
G1 Y-3.0 F1000.0 ; go outside print area
G92 E0.0
G1 X60.0 E9.0 F1000.0 ; intro line
M73 Q0 S23
M73 P0 R23
G1 X100.0 E12.5 F1000.0 ; intro line
G92 E0.0
M221 S95
G21 ; set units to millimeters
G90 ; use absolute coordinates
M83 ; use relative distances for extrusion
M900 K45 ; Filament gcode
;BEFORE_LAYER_CHANGE
G92 E0.0
;0.2


G1 E-1.40000 F2100.00000
G1 Z0.200 F10800.000
;AFTER_LAYER_CHANGE
;0.2
G1 Z0.400
G1 X91.022 Y69.820
G1 Z0.200
G1 E1.40000 F2100.00000
M204 S1000
G1 F1200
G1 X91.358 Y69.416 E0.01646
G1 X91.781 Y69.104 E0.01646
G1 X92.265 Y68.902 E0.01646
G1 X92.780 Y68.821 E0.01635
G1 X118.864 Y68.819 E0.81784
G1 X119.546 Y68.930 E0.02168
G1 X120.161 Y69.248 E0.02168
G1 X151.169 Y92.547 E1.21612
G1 X153.699 Y94.527 E0.10073
G1 X156.068 Y96.906 E0.10527
G1 X158.107 Y99.546 E0.10459
G1 X159.801 Y102.420 E0.10459
G1 X161.098 Y105.417 E0.10241
G1 X162.078 Y108.819 E0.11098
G1 X162.576 Y111.984 E0.10047
G1 X162.683 Y115.314 E0.10447
G1 X162.375 Y118.632 E0.10447
G1 X161.687 Y121.761 E0.10047
G1 X160.530 Y125.037 E0.10892
G1 X159.029 Y128.008 E0.10436
G1 X157.242 Y130.667 E0.10046
G1 X154.966 Y133.292 E0.10892
G1 X152.480 Y135.505 E0.10436
G1 X149.840 Y137.327 E0.10058
G1 X146.689 Y138.964 E0.11132
G1 X143.636 Y140.083 E0.10195
G1 X140.515 Y140.809 E0.10046
G1 X137.061 Y141.176 E0.10892
G1 X133.737 Y141.100 E0.10424
G1 X130.564 Y140.632 E0.10058
G1 X127.191 Y139.698 E0.10972
G1 X124.069 Y138.376 E0.10630
G1 X88.428 Y118.509 E1.27939
G1 X87.852 Y118.041 E0.02326
G1 X87.466 Y117.408 E0.02326
G1 X87.312 Y116.616 E0.02529
G1 X87.318 Y97.640 E0.59497
G1 X90.691 Y70.717 E0.85074
G1 X90.807 Y70.250 E0.01510
G1 X90.996 Y69.873 E0.01321
G1 F8640
G1 X91.358 Y69.416 E-0.13476
G1 X91.781 Y69.104 E-0.12123
G1 X92.265 Y68.902 E-0.12123
G1 X92.780 Y68.821 E-0.12039
G1 X96.385 Y68.821 E-0.83239
G1 E-0.07000 F2100.00000
G1 Z0.400 F10800.000
G1 X98.437 Y76.969
G1 Z0.200
G1 E1.40000 F2100.00000
G1 F1200
G1 X98.500 Y76.903 E0.00284
G1 X100.240 Y75.664 E0.06700
G1 X102.184 Y74.776 E0.06700
G1 X104.261 Y74.273 E0.06700
G1 X106.395 Y74.171 E0.06700
G1 X108.510 Y74.475 E0.06700
G1 X110.529 Y75.174 E0.06700
G1 X112.380 Y76.242 E0.06700
G1 X113.995 Y77.642 E0.06700
G1 X115.316 Y79.321 E0.06700
G1 X116.295 Y81.221 E0.06700
G1 X116.897 Y83.271 E0.06700
G1 X117.100 Y85.398 E0.06700
G1 X116.897 Y87.525 E0.06700
G1 X116.295 Y89.575 E0.06700
G1 X115.316 Y91.475 E0.06700
G1 X113.995 Y93.154 E0.06700
G1 X112.380 Y94.554 E0.06700
G1 X110.529 Y95.622 E0.06700
G1 X108.510 Y96.321 E0.06700
G1 X106.395 Y96.625 E0.06700
G1 X104.261 Y96.523 E0.06700
G1 X102.184 Y96.019 E0.06700
G1 X100.240 Y95.132 E0.06700
G1 X98.500 Y93.892 E0.06700
G1 X97.025 Y92.346 E0.06700
G1 X95.870 Y90.548 E0.06700
G1 X95.076 Y88.565 E0.06700
G1 X94.671 Y86.466 E0.06700
G1 X94.671 Y84.330 E0.06700
G1 X95.076 Y82.231 E0.06700
G1 X95.870 Y80.248 E0.06700
G1 X97.025 Y78.450 E0.06700
G1 X98.396 Y77.012 E0.06228
G1 X98.669 Y77.273 F10800.000
G1 F1200
G1 X98.748 Y77.190 E0.00359
G1 X100.430 Y75.992 E0.06474
G1 X102.308 Y75.134 E0.06474
G1 X104.315 Y74.648 E0.06474
G1 X106.377 Y74.549 E0.06474
G1 X108.421 Y74.843 E0.06474
G1 X110.372 Y75.518 E0.06474
G1 X112.160 Y76.551 E0.06474
G1 X113.721 Y77.903 E0.06474
G1 X114.997 Y79.526 E0.06474
G1 X115.943 Y81.361 E0.06474
G1 X116.525 Y83.342 E0.06474
G1 X116.721 Y85.398 E0.06474
G1 X116.525 Y87.453 E0.06474
G1 X115.943 Y89.435 E0.06474
G1 X114.997 Y91.270 E0.06474
G1 X113.721 Y92.893 E0.06474
G1 X112.160 Y94.245 E0.06474
G1 X110.372 Y95.277 E0.06474
G1 X108.421 Y95.953 E0.06474
G1 X106.377 Y96.247 E0.06474
G1 X104.315 Y96.148 E0.06474
G1 X102.308 Y95.662 E0.06474
G1 X100.430 Y94.804 E0.06474
G1 X98.748 Y93.606 E0.06474
G1 X97.323 Y92.112 E0.06474
G1 X96.207 Y90.375 E0.06474
G1 X95.439 Y88.458 E0.06474
G1 X95.048 Y86.430 E0.06474
G1 X95.048 Y84.366 E0.06474
G1 X95.439 Y82.338 E0.06474
G1 X96.207 Y80.421 E0.06474
G1 X97.323 Y78.684 E0.06474
G1 X98.627 Y77.316 E0.05927
G1 X98.633 Y77.164 F10800.000
G1 F8640
G1 X98.748 Y77.190 E-0.04029
G1 X100.430 Y75.992 E-0.47677
G1 X102.308 Y75.134 E-0.47677
G1 X103.723 Y74.791 E-0.33618
G1 E-0.07000 F2100.00000
G1 Z0.400 F10800.000
G1 X118.273 Y98.291
G1 Z0.200
G1 E1.40000 F2100.00000
G1 F1200
G1 X121.533 Y95.474 E0.13509
G1 X124.020 Y93.817 E0.09371
G1 X126.695 Y92.484 E0.09371
G1 X129.515 Y91.494 E0.09371
G1 X132.437 Y90.864 E0.09371
G1 X135.414 Y90.603 E0.09371
G1 X138.400 Y90.716 E0.09371
G1 X141.349 Y91.201 E0.09371
G1 X144.215 Y92.049 E0.09371
G1 X146.952 Y93.249 E0.09371
G1 X149.519 Y94.780 E0.09371
G1 X151.874 Y96.620 E0.09371
G1 X153.982 Y98.739 E0.09371
G1 X155.808 Y101.104 E0.09371
G1 X157.326 Y103.679 E0.09371
G1 X158.510 Y106.423 E0.09371
G1 X159.343 Y109.293 E0.09371
G1 X159.811 Y112.245 E0.09371
G1 X159.907 Y115.232 E0.09371
G1 X159.630 Y118.207 E0.09371
G1 X158.984 Y121.125 E0.09371
G1 X157.980 Y123.940 E0.09371
G1 X156.631 Y126.607 E0.09371
G1 X154.961 Y129.085 E0.09371
G1 X152.995 Y131.336 E0.09371
G1 X150.763 Y133.324 E0.09371
G1 X148.300 Y135.017 E0.09371
G1 X145.646 Y136.391 E0.09371
G1 X142.841 Y137.422 E0.09371
G1 X139.929 Y138.096 E0.09371
G1 X136.956 Y138.401 E0.09371
G1 X133.968 Y138.333 E0.09371
G1 X131.012 Y137.892 E0.09371
G1 X128.135 Y137.087 E0.09371
G1 X125.379 Y135.928 E0.09371
G1 X122.790 Y134.435 E0.09371
G1 X120.408 Y132.631 E0.09371
G1 X118.269 Y130.544 E0.09371
G1 X116.407 Y128.206 E0.09371
G1 X114.852 Y125.654 E0.09371
G1 X113.508 Y122.666 E0.10273
G1 X106.844 Y120.307 E0.22166
G1 X100.291 Y118.367 E0.21427
G1 X93.646 Y116.772 E0.21427
G1 X90.087 Y116.113 E0.11349
G1 X90.087 Y98.269 E0.55949
G1 X93.447 Y97.472 E0.10827
G1 X93.447 Y71.595 E0.81136
G1 X118.273 Y71.595 E0.77840
G1 X118.273 Y98.231 E0.83516
G1 X118.650 Y97.467 F10800.000
G1 F1200
G1 X121.304 Y95.173 E0.10999
G1 X123.831 Y93.490 E0.09519
G1 X126.548 Y92.136 E0.09519
G1 X129.413 Y91.131 E0.09519
G1 X132.380 Y90.491 E0.09519
G1 X135.404 Y90.226 E0.09519
G1 X138.438 Y90.340 E0.09519
G1 X141.434 Y90.832 E0.09519
G1 X144.345 Y91.694 E0.09519
G1 X147.125 Y92.913 E0.09519
G1 X149.732 Y94.468 E0.09519
G1 X152.125 Y96.337 E0.09519
G1 X154.266 Y98.489 E0.09519
G1 X156.121 Y100.892 E0.09519
G1 X157.663 Y103.508 E0.09519
G1 X158.866 Y106.295 E0.09519
G1 X159.712 Y109.211 E0.09519
G1 X160.187 Y112.209 E0.09519
G1 X160.285 Y115.243 E0.09519
G1 X160.004 Y118.266 E0.09519
G1 X159.348 Y121.230 E0.09519
G1 X158.327 Y124.089 E0.09519
G1 X156.957 Y126.798 E0.09519
G1 X155.260 Y129.316 E0.09519
G1 X153.263 Y131.602 E0.09519
G1 X150.996 Y133.621 E0.09519
G1 X148.495 Y135.341 E0.09519
G1 X145.798 Y136.736 E0.09519
G1 X142.949 Y137.784 E0.09519
G1 X139.991 Y138.468 E0.09519
G1 X136.971 Y138.778 E0.09519
G1 X133.936 Y138.709 E0.09519
G1 X130.934 Y138.262 E0.09519
G1 X128.010 Y137.443 E0.09519
G1 X125.212 Y136.267 E0.09519
G1 X122.582 Y134.750 E0.09519
G1 X120.161 Y132.918 E0.09519
G1 X117.989 Y130.797 E0.09519
G1 X116.098 Y128.422 E0.09519
G1 X114.517 Y125.830 E0.09519
G1 X113.231 Y122.967 E0.09841
G1 X106.728 Y120.666 E0.21630
G1 X100.194 Y118.731 E0.21365
G1 X93.568 Y117.141 E0.21365
G1 X89.710 Y116.426 E0.12301
G1 X89.710 Y97.970 E0.57867
G1 X93.070 Y97.174 E0.10827
G1 X93.070 Y71.218 E0.81383
G1 X118.650 Y71.218 E0.80204
G1 X118.650 Y97.407 E0.82114
G1 X118.918 Y97.764 F10800.000
G1 X118.160 Y98.163
G1 F1200
G1 X113.743 Y93.746 E0.19694
G1 X114.030 Y93.497 E0.01199
G1 X117.990 Y97.457 E0.17657
G1 X117.990 Y96.921 E0.01691
G1 X114.297 Y93.228 E0.16469
G1 X114.533 Y92.927 E0.01204
G1 X117.990 Y96.385 E0.15416
G1 X117.990 Y95.849 E0.01691
G1 X114.769 Y92.627 E0.14364
G1 X115.005 Y92.327 E0.01204
G1 X117.990 Y95.312 E0.13311
G1 X117.990 Y94.776 E0.01691
G1 X115.241 Y92.027 E0.12259
G1 X115.477 Y91.727 E0.01204
G1 X117.990 Y94.240 E0.11206
G1 X117.990 Y93.704 E0.01691
G1 X115.677 Y91.390 E0.10314
G1 X115.860 Y91.037 E0.01255
G1 X117.990 Y93.167 E0.09501
G1 X117.990 Y92.631 E0.01691
G1 X116.042 Y90.683 E0.08687
G1 X116.224 Y90.329 E0.01255
G1 X117.990 Y92.095 E0.07874
G1 X117.990 Y91.559 E0.01691
G1 X116.407 Y89.975 E0.07061
G1 X116.579 Y89.611 E0.01270
G1 X117.990 Y91.022 E0.06293
G1 X117.990 Y90.486 E0.01691
G1 X116.701 Y89.196 E0.05750
G1 X116.822 Y88.782 E0.01362
G1 X117.990 Y89.950 E0.05207
G1 X117.990 Y89.414 E0.01691
G1 X116.944 Y88.367 E0.04665
G1 X117.066 Y87.953 E0.01362
G1 X117.990 Y88.877 E0.04122
G1 X117.990 Y88.341 E0.01691
G1 X117.180 Y87.531 E0.03612
G1 X117.227 Y87.042 E0.01550
G1 X117.990 Y87.805 E0.03403
G1 X117.990 Y87.269 E0.01691
G1 X117.274 Y86.552 E0.03195
G1 X117.321 Y86.062 E0.01550
G1 X117.990 Y86.732 E0.02986
G1 X117.990 Y86.196 E0.01691
G1 X117.367 Y85.573 E0.02778
G1 X117.384 Y85.398 E0.00555
G1 X117.348 Y85.017 E0.01206
G1 X117.990 Y85.660 E0.02866
G1 X117.990 Y85.124 E0.01691
G1 X117.291 Y84.424 E0.03118
G1 X117.234 Y83.831 E0.01878
G1 X117.990 Y84.587 E0.03371
G1 X117.990 Y84.051 E0.01691
G1 X117.178 Y83.239 E0.03623
G1 X116.961 Y82.485 E0.02471
G1 X117.990 Y83.515 E0.04590
G1 X117.990 Y82.979 E0.01691
G1 X116.738 Y81.726 E0.05584
G1 X116.559 Y81.115 E0.02009
G1 X116.447 Y80.899 E0.00765
G1 X118.160 Y82.612 E0.07637
G1 F8640
G1 X116.447 Y80.899 E-0.55925
G1 X116.559 Y81.115 E-0.05602
G1 X116.738 Y81.726 E-0.14710
G1 X117.990 Y82.979 E-0.40893
G1 X117.990 Y83.515 E-0.12382
G1 X117.884 Y83.408 E-0.03487
G1 E-0.07000 F2100.00000
G1 Z0.400 F10800.000
G1 X115.483 Y79.398
G1 Z0.200
G1 E1.40000 F2100.00000
G1 F1200
G1 X117.990 Y81.906 E0.11182
G1 X117.990 Y81.370 E0.01691
G1 X108.498 Y71.878 E0.42324
G1 X109.035 Y71.878 E0.01691
G1 X117.990 Y80.834 E0.39933
G1 X117.990 Y80.297 E0.01691
G1 X109.571 Y71.878 E0.37542
G1 X110.107 Y71.878 E0.01691
G1 X117.990 Y79.761 E0.35151
G1 X117.990 Y79.225 E0.01691
G1 X110.643 Y71.878 E0.32760
G1 X111.180 Y71.878 E0.01691
G1 X117.990 Y78.689 E0.30369
G1 X117.990 Y78.152 E0.01691
G1 X111.716 Y71.878 E0.27978
G1 X112.252 Y71.878 E0.01691
G1 X117.990 Y77.616 E0.25586
G1 X117.990 Y77.080 E0.01691
G1 X112.788 Y71.878 E0.23195
G1 X113.325 Y71.878 E0.01691
G1 X117.990 Y76.543 E0.20804
G1 X117.990 Y76.007 E0.01691
G1 X113.861 Y71.878 E0.18413
G1 X114.397 Y71.878 E0.01691
G1 X117.990 Y75.471 E0.16022
M73 Q4 S22
G1 X117.990 Y74.935 E0.01691
G1 X114.933 Y71.878 E0.13631
G1 X115.470 Y71.878 E0.01691
G1 X117.990 Y74.398 E0.11240
M73 P4 R22
G1 X117.990 Y73.862 E0.01691
G1 X116.006 Y71.878 E0.08849
G1 X116.542 Y71.878 E0.01691
G1 X117.990 Y73.326 E0.06457
G1 X117.990 Y72.790 E0.01691
G1 X117.078 Y71.878 E0.04066
G1 X117.615 Y71.878 E0.01691
G1 X118.160 Y72.423 E0.02432
G1 F8640
G1 X117.615 Y71.878 E-0.17809
G1 X117.078 Y71.878 E-0.12382
G1 X117.990 Y72.790 E-0.29780
G1 X117.990 Y73.326 E-0.12382
G1 X116.542 Y71.878 E-0.47291
G1 X116.006 Y71.878 E-0.12382
G1 X116.036 Y71.908 E-0.00974
G1 E-0.07000 F2100.00000
G1 Z0.400 F10800.000
G1 X111.945 Y75.860
G1 Z0.200
G1 E1.40000 F2100.00000
G1 F1200
G1 X107.962 Y71.878 E0.17759
G1 X107.426 Y71.878 E0.01691
G1 X110.366 Y74.818 E0.13111
G1 X109.546 Y74.534 E0.02736
G1 X106.890 Y71.878 E0.11845
G1 X106.353 Y71.878 E0.01691
G1 X108.726 Y74.251 E0.10580
G1 X108.577 Y74.199 E0.00497
G1 X108.065 Y74.125 E0.01632
G1 X105.817 Y71.878 E0.10021
G1 X105.281 Y71.878 E0.01691
G1 X107.438 Y74.035 E0.09620
G1 X106.812 Y73.945 E0.01995
G1 X104.745 Y71.878 E0.09218
G1 X104.208 Y71.878 E0.01691
G1 X106.226 Y73.896 E0.08998
G1 X105.715 Y73.920 E0.01616
G1 X103.672 Y71.878 E0.09107
G1 X103.136 Y71.878 E0.01691
G1 X105.203 Y73.945 E0.09216
G1 X104.691 Y73.969 E0.01616
G1 X102.600 Y71.878 E0.09324
G1 X102.063 Y71.878 E0.01691
G1 X104.185 Y74.000 E0.09462
G1 X103.754 Y74.105 E0.01400
G1 X101.527 Y71.878 E0.09929
G1 X100.991 Y71.878 E0.01691
G1 X103.322 Y74.209 E0.10396
G1 X102.891 Y74.314 E0.01400
G1 X100.455 Y71.878 E0.10863
G1 X99.918 Y71.878 E0.01691
G1 X102.459 Y74.419 E0.11329
G1 X102.037 Y74.533 E0.01379
G1 X99.382 Y71.878 E0.11838
G1 X98.846 Y71.878 E0.01691
G1 X101.669 Y74.701 E0.12588
G1 X101.301 Y74.869 E0.01276
G1 X98.310 Y71.878 E0.13337
G1 X97.773 Y71.878 E0.01691
G1 X100.933 Y75.037 E0.14087
G1 X100.564 Y75.205 E0.01276
G1 X97.237 Y71.878 E0.14836
G1 X96.701 Y71.878 E0.01691
G1 X100.196 Y75.373 E0.15586
G1 X100.098 Y75.418 E0.00340
G1 X99.868 Y75.582 E0.00890
G1 X96.165 Y71.878 E0.16515
G1 X95.628 Y71.878 E0.01691
G1 X99.555 Y75.805 E0.17510
G1 X99.242 Y76.028 E0.01212
G1 X95.092 Y71.878 E0.18504
G1 X94.556 Y71.878 E0.01691
G1 X98.929 Y76.251 E0.19499
G1 X98.616 Y76.474 E0.01212
G1 X94.020 Y71.878 E0.20493
G1 X93.730 Y71.878 E0.00913
G1 X93.730 Y72.125 E0.00778
G1 X98.304 Y76.699 E0.20396
G1 X98.042 Y76.973 E0.01196
G1 X93.730 Y72.661 E0.19229
G1 X93.730 Y73.197 E0.01691
G1 X97.781 Y77.248 E0.18062
G1 X97.519 Y77.522 E0.01196
G1 X93.730 Y73.733 E0.16895
G1 X93.730 Y74.270 E0.01691
G1 X97.257 Y77.797 E0.15728
G1 X96.996 Y78.071 E0.01196
G1 X93.730 Y74.806 E0.14561
G1 X93.730 Y75.342 E0.01691
G1 X96.747 Y78.359 E0.13454
G1 X96.537 Y78.686 E0.01224
G1 X93.730 Y75.878 E0.12518
G1 X93.730 Y76.415 E0.01691
G1 X96.328 Y79.012 E0.11583
G1 X96.118 Y79.339 E0.01224
G1 X93.730 Y76.951 E0.10647
G1 X93.730 Y77.487 E0.01691
G1 X95.908 Y79.665 E0.09712
G1 X95.698 Y79.992 E0.01224
G1 X93.730 Y78.023 E0.08776
G1 X93.730 Y78.560 E0.01691
G1 X95.523 Y80.353 E0.07996
G1 X95.370 Y80.736 E0.01301
G1 X93.730 Y79.096 E0.07312
G1 X93.730 Y79.632 E0.01691
G1 X95.217 Y81.119 E0.06628
G1 X95.063 Y81.502 E0.01301
G1 X93.730 Y80.168 E0.05945
G1 X93.730 Y80.705 E0.01691
G1 X94.910 Y81.884 E0.05261
G1 X94.803 Y82.151 E0.00906
G1 X94.777 Y82.288 E0.00438
G1 X93.730 Y81.241 E0.04668
G1 X93.730 Y81.777 E0.01691
G1 X94.690 Y82.737 E0.04281
G1 X94.604 Y83.187 E0.01444
G1 X93.730 Y82.313 E0.03895
G1 X93.730 Y82.850 E0.01691
G1 X94.517 Y83.636 E0.03509
G1 X94.430 Y84.086 E0.01444
G1 X93.730 Y83.386 E0.03122
G1 X93.730 Y83.922 E0.01691
G1 X94.389 Y84.581 E0.02936
G1 X94.389 Y85.117 E0.01691
G1 X93.730 Y84.458 E0.02936
G1 X93.730 Y84.995 E0.01691
G1 X94.389 Y85.653 E0.02936
G1 X94.389 Y86.189 E0.01691
G1 X93.730 Y85.531 E0.02936
G1 X93.730 Y86.067 E0.01691
G1 X94.444 Y86.781 E0.03183
G1 X94.572 Y87.445 E0.02133
G1 X93.730 Y86.603 E0.03754
G1 X93.730 Y87.140 E0.01691
G1 X94.700 Y88.110 E0.04325
G1 X94.803 Y88.645 E0.01718
G1 X94.873 Y88.819 E0.00591
G1 X93.730 Y87.676 E0.05096
G1 X93.730 Y88.212 E0.01691
G1 X95.231 Y89.713 E0.06692
G1 X95.589 Y90.607 E0.03037
G1 X93.730 Y88.748 E0.08288
G1 X93.730 Y89.285 E0.01691
G1 X141.815 Y137.369 E2.14407
G1 X142.250 Y137.269 E0.01409
G1 X100.579 Y95.597 E1.85809
G1 X101.566 Y96.048 E0.03421
G1 X142.686 Y137.168 E1.83350
G1 X143.085 Y137.031 E0.01331
G1 X102.423 Y96.368 E1.81313
G1 X103.131 Y96.540 E0.02297
G1 X143.477 Y136.887 E1.79904
G1 X143.869 Y136.743 E0.01317
G1 X103.839 Y96.712 E1.78495
G1 X104.220 Y96.804 E0.01238
G1 X104.480 Y96.817 E0.00820
G1 X144.262 Y136.599 E1.77385
G1 X144.654 Y136.454 E0.01317
G1 X105.043 Y96.844 E1.76622
G1 X105.606 Y96.870 E0.01777
G1 X145.046 Y136.310 E1.75860
G1 X145.438 Y136.166 E0.01317
G1 X106.169 Y96.897 E1.75097
G1 X106.409 Y96.909 E0.00756
G1 X106.678 Y96.870 E0.00858
G1 X145.800 Y135.992 E1.74445
G1 X146.154 Y135.810 E0.01255
G1 X107.147 Y96.803 E1.73930
