; generated by PrusaSlicer 2.1.0+win64 on 2019-12-02 at 03:14:57 UTC

; 

; external perimeters extrusion width = 0.60mm
; perimeters extrusion width = 0.50mm
; infill extrusion width = 0.50mm
; solid infill extrusion width = 0.50mm
; top infill extrusion width = 0.45mm
; first layer extrusion width = 0.42mm

M73 P0 R226
M73 Q0 S228
M201 X1000 Y1000 Z1000 E5000 ; sets maximum accelerations, mm/sec^2
M203 X200 Y200 Z12 E120 ; sets maximum feedrates, mm/sec
M204 P1250 R1250 T1250 ; sets acceleration (P, T) and retract acceleration (R), mm/sec^2
M205 X8.00 Y8.00 Z0.40 E1.50 ; sets the jerk limits, mm/sec
M205 S0 T0 ; sets the minimum extruding and travel feed rate, mm/sec
M107
M862.3 P "MK3S" ; printer model check
M862.1 P0.4 ; nozzle diameter check
M115 U3.8.1 ; tell printer latest fw version
G90 ; use absolute coordinates
M83 ; extruder relative mode
M104 S240 ; set extruder temp
M140 S85 ; set bed temp
M190 S85 ; wait for bed temp
M109 S240 ; wait for extruder temp
G28 W ; home all without mesh bed level
G80 ; mesh bed leveling
G1 Y-3.0 F1000.0 ; go outside print area
G92 E0.0
G1 X60.0 E9.0 F1000.0 ; intro line
M73 Q0 S228
M73 P0 R226
G1 X100.0 E12.5 F1000.0 ; intro line
G92 E0.0
M221 S95
G21 ; set units to millimeters
G90 ; use absolute coordinates
M83 ; use relative distances for extrusion
M900 K45 ; Filament gcode
;BEFORE_LAYER_CHANGE
G92 E0.0
;0.2


G1 E-1.40000 F2100.00000
G1 Z0.200 F10800.000
;AFTER_LAYER_CHANGE
;0.2
G1 Z0.400
G1 X72.364 Y8.508
G1 Z0.200
G1 E1.40000 F2100.00000
M204 S1000
G1 F1200
G1 X177.532 Y8.460 E3.29745
G1 X178.214 Y8.570 E0.02168
G1 X178.829 Y8.888 E0.02168
G1 X209.837 Y32.188 E1.21612
G1 X212.419 Y34.214 E0.10290
G1 X214.822 Y36.651 E0.10732
G1 X216.775 Y39.187 E0.10035
G1 X218.407 Y41.948 E0.10058
G1 X219.791 Y45.123 E0.10858
G1 X220.742 Y48.434 E0.10801
G1 X221.243 Y51.625 E0.10127
G1 X221.352 Y54.874 E0.10195
G1 X221.345 Y129.046 E2.32560
G1 X221.045 Y132.235 E0.10043
G1 X213.379 Y183.847 E1.63601
G1 X212.689 Y186.304 E0.08000
G1 X211.756 Y188.604 E0.07783
G1 X210.571 Y190.793 E0.07806
G1 X209.184 Y192.799 E0.07646
G1 X207.523 Y194.712 E0.07943
G1 X205.694 Y196.396 E0.07795
G1 X203.688 Y197.870 E0.07806
G1 X201.539 Y199.111 E0.07783
G1 X199.259 Y200.112 E0.07806
G1 X196.886 Y200.854 E0.07794
G1 X194.446 Y201.330 E0.07795
G1 X191.962 Y201.536 E0.07817
G1 X98.458 Y201.536 E2.93175
G1 X49.430 Y201.245 E1.53726
G1 X46.851 Y200.897 E0.08160
G1 X44.334 Y200.250 E0.08149
G1 X42.113 Y199.415 E0.07439
G1 X39.997 Y198.348 E0.07428
G1 X37.807 Y196.928 E0.08183
G1 X35.894 Y195.352 E0.07772
G1 X34.161 Y193.570 E0.07795
G1 X32.634 Y191.608 E0.07795
G1 X31.331 Y189.487 E0.07806
G1 X30.271 Y187.242 E0.07783
G1 X29.463 Y184.888 E0.07806
G1 X28.920 Y182.462 E0.07795
G1 X28.644 Y179.932 E0.07977
G1 X28.997 Y54.884 E3.92082
G1 X29.097 Y51.752 E0.09826
G1 X29.627 Y48.333 E0.10847
G1 X30.557 Y45.126 E0.10470
G1 X31.882 Y42.057 E0.10482
G1 X33.627 Y39.112 E0.10733
G1 X35.618 Y36.541 E0.10195
G1 X38.058 Y34.104 E0.10813
G1 X40.512 Y32.188 E0.09760
G1 X71.512 Y8.895 E1.21581
G1 X71.917 Y8.655 E0.01475
G1 X72.307 Y8.527 E0.01287
G1 F8640
G1 X78.067 Y8.523 E-1.33000
G1 E-0.07000 F2100.00000
G1 Z0.400 F10800.000
G1 X84.256 Y87.892
G1 Z0.200
G1 E1.40000 F2100.00000
G1 F1200
G1 X86.356 Y87.792 E0.06591
G1 X88.471 Y88.096 E0.06700
G1 X90.490 Y88.795 E0.06700
G1 X92.341 Y89.864 E0.06700
G1 X93.956 Y91.263 E0.06700
G1 X95.276 Y92.943 E0.06700
G1 X96.256 Y94.842 E0.06700
G1 X96.858 Y96.892 E0.06700
G1 X97.061 Y99.019 E0.06700
G1 X96.858 Y101.146 E0.06700
G1 X96.256 Y103.197 E0.06700
G1 X95.276 Y105.096 E0.06700
G1 X93.956 Y106.776 E0.06700
G1 X92.341 Y108.175 E0.06700
G1 X90.490 Y109.243 E0.06700
G1 X88.471 Y109.942 E0.06700
G1 X86.356 Y110.246 E0.06700
G1 X84.221 Y110.145 E0.06700
G1 X82.145 Y109.641 E0.06700
G1 X80.201 Y108.753 E0.06700
G1 X78.460 Y107.514 E0.06700
G1 X76.986 Y105.967 E0.06700
G1 X75.831 Y104.170 E0.06700
G1 X75.036 Y102.186 E0.06700
G1 X74.632 Y100.088 E0.06700
G1 X74.632 Y97.951 E0.06700
G1 X75.036 Y95.853 E0.06700
G1 X75.831 Y93.869 E0.06700
G1 X76.986 Y92.071 E0.06700
G1 X78.460 Y90.525 E0.06700
G1 X80.201 Y89.285 E0.06700
G1 X82.146 Y88.397 E0.06703
G1 X84.198 Y87.906 E0.06616
G1 X84.285 Y88.273 F10800.000
G1 F1200
G1 X86.338 Y88.171 E0.06443
G1 X88.381 Y88.465 E0.06474
G1 X90.333 Y89.140 E0.06474
G1 X92.121 Y90.172 E0.06474
G1 X93.681 Y91.524 E0.06474
G1 X94.958 Y93.147 E0.06474
G1 X95.904 Y94.983 E0.06474
G1 X96.486 Y96.964 E0.06474
G1 X96.682 Y99.019 E0.06474
G1 X96.486 Y101.075 E0.06474
G1 X95.904 Y103.056 E0.06474
G1 X94.958 Y104.891 E0.06474
G1 X93.681 Y106.514 E0.06474
G1 X92.121 Y107.866 E0.06474
G1 X90.333 Y108.899 E0.06474
G1 X88.381 Y109.574 E0.06474
G1 X86.338 Y109.868 E0.06474
G1 X84.275 Y109.770 E0.06474
G1 X82.269 Y109.283 E0.06474
G1 X80.390 Y108.425 E0.06474
G1 X78.709 Y107.227 E0.06474
G1 X77.284 Y105.733 E0.06474
G1 X76.167 Y103.996 E0.06474
G1 X75.400 Y102.079 E0.06474
G1 X75.009 Y100.052 E0.06474
G1 X75.009 Y97.987 E0.06474
G1 X75.400 Y95.959 E0.06474
G1 X76.167 Y94.043 E0.06474
G1 X77.284 Y92.306 E0.06474
G1 X78.709 Y90.811 E0.06474
G1 X80.390 Y89.613 E0.06474
G1 X82.269 Y88.756 E0.06475
G1 X84.227 Y88.287 E0.06313
G1 X84.434 Y87.902 F10800.000
G1 F8640
G1 X86.338 Y88.171 E-0.48810
G1 X88.381 Y88.465 E-0.47677
G1 X89.876 Y88.982 E-0.36513
G1 E-0.07000 F2100.00000
G1 Z0.400 F10800.000
G1 X153.339 Y97.951
G1 Z0.200
G1 E1.40000 F2100.00000
G1 F1200
G1 X153.744 Y95.853 E0.06700
G1 X154.538 Y93.869 E0.06700
G1 X155.693 Y92.071 E0.06700
G1 X157.168 Y90.525 E0.06700
G1 X158.908 Y89.285 E0.06700
G1 X160.853 Y88.397 E0.06703
G1 X162.963 Y87.892 E0.06804
G1 X165.063 Y87.792 E0.06591
G1 X167.178 Y88.096 E0.06700
G1 X169.197 Y88.795 E0.06700
G1 X171.048 Y89.864 E0.06700
G1 X172.663 Y91.263 E0.06700
G1 X173.984 Y92.943 E0.06700
G1 X174.963 Y94.842 E0.06700
G1 X175.565 Y96.892 E0.06700
G1 X175.768 Y99.019 E0.06700
G1 X175.565 Y101.146 E0.06700
G1 X174.963 Y103.197 E0.06700
G1 X173.984 Y105.096 E0.06700
G1 X172.663 Y106.776 E0.06700
G1 X171.048 Y108.175 E0.06700
G1 X169.197 Y109.243 E0.06700
G1 X167.178 Y109.942 E0.06700
G1 X165.063 Y110.246 E0.06700
G1 X162.928 Y110.145 E0.06700
G1 X160.852 Y109.641 E0.06700
G1 X158.908 Y108.753 E0.06700
G1 X157.168 Y107.514 E0.06700
G1 X155.693 Y105.967 E0.06700
G1 X154.538 Y104.170 E0.06700
G1 X153.744 Y102.186 E0.06700
G1 X153.339 Y100.088 E0.06700
G1 X153.339 Y98.011 E0.06512
G1 X153.716 Y98.011 F10800.000
G1 F1200
G1 X154.107 Y95.959 E0.06548
G1 X154.874 Y94.043 E0.06474
G1 X155.991 Y92.306 E0.06474
G1 X157.416 Y90.811 E0.06474
G1 X159.098 Y89.613 E0.06474
G1 X160.976 Y88.756 E0.06475
G1 X163.016 Y88.267 E0.06578
G1 X165.045 Y88.171 E0.06367
G1 X167.089 Y88.465 E0.06474
G1 X169.040 Y89.140 E0.06474
G1 X170.828 Y90.172 E0.06474
G1 X172.389 Y91.524 E0.06474
G1 X173.665 Y93.147 E0.06474
G1 X174.611 Y94.983 E0.06474
G1 X175.193 Y96.964 E0.06474
G1 X175.389 Y99.019 E0.06474
G1 X175.193 Y101.075 E0.06474
G1 X174.611 Y103.056 E0.06474
G1 X173.665 Y104.891 E0.06474
G1 X172.389 Y106.514 E0.06474
G1 X170.828 Y107.866 E0.06474
G1 X169.040 Y108.899 E0.06474
G1 X167.089 Y109.574 E0.06474
G1 X165.045 Y109.868 E0.06474
G1 X162.982 Y109.770 E0.06474
G1 X160.976 Y109.283 E0.06474
G1 X159.098 Y108.425 E0.06474
G1 X157.416 Y107.227 E0.06474
G1 X155.991 Y105.733 E0.06474
G1 X154.874 Y103.996 E0.06474
G1 X154.107 Y102.079 E0.06474
G1 X153.716 Y100.052 E0.06474
G1 X153.716 Y98.071 E0.06211
G1 X153.390 Y97.779 F10800.000
G1 F8640
G1 X154.107 Y95.959 E-0.49583
G1 X154.874 Y94.043 E-0.47677
G1 X155.711 Y92.740 E-0.35741
G1 E-0.07000 F2100.00000
G1 Z0.400 F10800.000
G1 X98.234 Y111.093
G1 Z0.200
G1 E1.40000 F2100.00000
G1 F1200
G1 X104.465 Y112.571 E0.20080
G1 X110.332 Y113.605 E0.18678
G1 X116.249 Y114.297 E0.18678
G1 X122.196 Y114.644 E0.18678
G1 X128.153 Y114.644 E0.18679
G1 X134.198 Y114.286 E0.18987
G1 X140.017 Y113.605 E0.18368
G1 X145.884 Y112.571 E0.18678
G1 X152.115 Y111.093 E0.20080
G1 X152.115 Y85.216 E0.81136
G1 X176.941 Y85.216 E0.77840
M73 Q0 S227
G1 X176.941 Y111.913 E0.83704
M73 P0 R225
G1 X180.201 Y109.095 E0.13509
G1 X182.688 Y107.439 E0.09371
G1 X185.363 Y106.105 E0.09371
G1 X188.183 Y105.116 E0.09371
G1 X191.104 Y104.486 E0.09371
G1 X194.082 Y104.225 E0.09371
G1 X197.068 Y104.338 E0.09371
G1 X200.017 Y104.822 E0.09371
G1 X202.883 Y105.671 E0.09370
G1 X205.620 Y106.870 E0.09371
G1 X208.187 Y108.401 E0.09371
G1 X210.542 Y110.241 E0.09371
G1 X212.650 Y112.360 E0.09371
G1 X214.476 Y114.725 E0.09371
G1 X215.994 Y117.300 E0.09371
G1 X217.178 Y120.044 E0.09371
G1 X218.011 Y122.914 E0.09371
G1 X218.479 Y125.866 E0.09371
G1 X218.575 Y128.853 E0.09371
G1 X218.298 Y131.829 E0.09371
G1 X217.652 Y134.747 E0.09371
G1 X216.647 Y137.561 E0.09371
G1 X215.299 Y140.229 E0.09371
G1 X213.629 Y142.707 E0.09371
G1 X211.662 Y144.957 E0.09371
G1 X209.468 Y146.911 E0.09212
G1 X206.968 Y148.639 E0.09529
G1 X204.314 Y150.012 E0.09369
G1 X201.509 Y151.044 E0.09371
G1 X198.597 Y151.717 E0.09371
G1 X195.624 Y152.022 E0.09371
G1 X192.636 Y151.954 E0.09371
G1 X189.680 Y151.514 E0.09371
G1 X186.802 Y150.708 E0.09371
G1 X184.047 Y149.550 E0.09371
G1 X181.458 Y148.057 E0.09371
G1 X179.076 Y146.253 E0.09371
G1 X176.937 Y144.165 E0.09371
G1 X175.075 Y141.827 E0.09371
G1 X173.520 Y139.276 E0.09371
G1 X172.176 Y136.287 E0.10273
G1 X165.512 Y133.928 E0.22167
G1 X158.849 Y131.962 E0.21782
G1 X152.314 Y130.393 E0.21071
G1 X145.594 Y129.148 E0.21427
G1 X138.819 Y128.257 E0.21427
G1 X132.006 Y127.721 E0.21427
G1 X125.174 Y127.542 E0.21428
G1 X118.230 Y127.730 E0.21782
G1 X111.530 Y128.257 E0.21071
G1 X104.755 Y129.148 E0.21427
G1 X98.035 Y130.393 E0.21427
G1 X91.390 Y131.988 E0.21427
G1 X84.837 Y133.928 E0.21427
G1 X78.173 Y136.287 E0.22166
G1 X76.830 Y139.276 E0.10273
G1 X75.274 Y141.827 E0.09371
G1 X73.412 Y144.165 E0.09371
G1 X71.273 Y146.253 E0.09371
G1 X68.891 Y148.057 E0.09371
G1 X66.302 Y149.550 E0.09371
G1 X63.547 Y150.708 E0.09371
G1 X60.669 Y151.514 E0.09371
G1 X57.713 Y151.954 E0.09371
G1 X54.725 Y152.022 E0.09371
G1 X51.752 Y151.717 E0.09371
G1 X48.889 Y151.055 E0.09212
G1 X46.035 Y150.012 E0.09529
G1 X43.381 Y148.639 E0.09369
G1 X40.918 Y146.945 E0.09371
G1 X38.687 Y144.957 E0.09371
G1 X36.720 Y142.707 E0.09371
G1 X35.078 Y140.270 E0.09212
G1 X33.701 Y137.561 E0.09529
G1 X32.697 Y134.747 E0.09369
G1 X32.062 Y131.878 E0.09212
G1 X31.774 Y128.853 E0.09529
G1 X31.870 Y125.866 E0.09369
G1 X32.338 Y122.914 E0.09371
G1 X33.171 Y120.044 E0.09371
G1 X34.355 Y117.300 E0.09371
G1 X35.873 Y114.725 E0.09371
G1 X37.669 Y112.400 E0.09212
G1 X39.807 Y110.241 E0.09529
G1 X42.162 Y108.401 E0.09369
G1 X44.729 Y106.870 E0.09371
G1 X47.466 Y105.671 E0.09371
G1 X50.332 Y104.822 E0.09371
G1 X53.231 Y104.346 E0.09212
G1 X56.268 Y104.225 E0.09529
G1 X59.245 Y104.486 E0.09369
G1 X62.166 Y105.116 E0.09371
G1 X64.986 Y106.105 E0.09371
G1 X67.661 Y107.439 E0.09371
G1 X70.148 Y109.095 E0.09371
G1 X73.408 Y111.913 E0.13509
G1 X73.408 Y85.216 E0.83704
G1 X98.234 Y85.216 E0.77840
G1 X98.234 Y111.033 E0.80948
G1 X98.611 Y110.795 F10800.000
G1 F1200
G1 X104.542 Y112.201 E0.19111
G1 X110.387 Y113.232 E0.18609
G1 X116.282 Y113.921 E0.18609
G1 X122.207 Y114.267 E0.18609
G1 X128.142 Y114.267 E0.18610
G1 X134.165 Y113.910 E0.18918
G1 X139.962 Y113.232 E0.18300
G1 X145.807 Y112.201 E0.18609
G1 X151.738 Y110.795 E0.19111
G1 X151.738 Y84.839 E0.81383
G1 X177.318 Y84.839 E0.80204
G1 X177.318 Y111.088 E0.82302
G1 X179.972 Y108.795 E0.10999
G1 X182.499 Y107.112 E0.09519
G1 X185.216 Y105.757 E0.09519
G1 X188.080 Y104.752 E0.09519
G1 X191.048 Y104.112 E0.09519
G1 X194.072 Y103.847 E0.09519
G1 X197.106 Y103.962 E0.09519
G1 X200.102 Y104.454 E0.09519
G1 X203.013 Y105.316 E0.09519
G1 X205.793 Y106.534 E0.09519
G1 X208.400 Y108.090 E0.09519
G1 X210.793 Y109.958 E0.09519
G1 X212.934 Y112.111 E0.09519
G1 X214.789 Y114.514 E0.09519
G1 X216.330 Y117.129 E0.09519
G1 X217.533 Y119.916 E0.09519
G1 X218.379 Y122.832 E0.09519
G1 X218.855 Y125.830 E0.09519
G1 X218.953 Y128.865 E0.09519
G1 X218.672 Y131.887 E0.09519
G1 X218.015 Y134.851 E0.09519
G1 X216.995 Y137.710 E0.09519
G1 X215.625 Y140.420 E0.09519
G1 X213.928 Y142.937 E0.09519
G1 X211.931 Y145.223 E0.09519
G1 X209.702 Y147.209 E0.09359
G1 X207.162 Y148.963 E0.09677
G1 X204.466 Y150.358 E0.09518
G1 X201.617 Y151.406 E0.09519
G1 X198.659 Y152.090 E0.09519
G1 X195.639 Y152.400 E0.09519
G1 X192.604 Y152.331 E0.09519
G1 X189.601 Y151.883 E0.09519
G1 X186.678 Y151.065 E0.09519
G1 X183.879 Y149.888 E0.09519
G1 X181.250 Y148.372 E0.09519
G1 X178.829 Y146.539 E0.09519
G1 X176.657 Y144.419 E0.09519
G1 X174.765 Y142.044 E0.09519
G1 X173.185 Y139.452 E0.09519
G1 X171.899 Y136.589 E0.09841
G1 X165.395 Y134.287 E0.21630
G1 X158.751 Y132.326 E0.21720
G1 X152.236 Y130.762 E0.21010
G1 X145.535 Y129.521 E0.21365
G1 X138.780 Y128.632 E0.21365
G1 X131.986 Y128.098 E0.21365
G1 X125.174 Y127.919 E0.21366
G1 X118.250 Y128.106 E0.21720
G1 X111.570 Y128.632 E0.21010
G1 X104.814 Y129.521 E0.21365
G1 X98.113 Y130.762 E0.21365
G1 X91.487 Y132.352 E0.21365
G1 X84.954 Y134.287 E0.21365
G1 X78.451 Y136.589 E0.21630
G1 X77.164 Y139.452 E0.09841
G1 X75.584 Y142.044 E0.09519
G1 X73.692 Y144.419 E0.09519
G1 X71.520 Y146.539 E0.09519
G1 X69.100 Y148.372 E0.09519
G1 X66.470 Y149.888 E0.09519
G1 X63.671 Y151.065 E0.09519
G1 X60.748 Y151.883 E0.09519
G1 X57.745 Y152.330 E0.09519
G1 X54.710 Y152.400 E0.09519
G1 X51.690 Y152.090 E0.09519
G1 X48.782 Y151.417 E0.09359
G1 X45.883 Y150.358 E0.09677
G1 X43.187 Y148.963 E0.09518
G1 X40.685 Y147.242 E0.09519
G1 X38.418 Y145.223 E0.09519
G1 X36.421 Y142.937 E0.09519
G1 X34.752 Y140.462 E0.09359
G1 X33.354 Y137.710 E0.09677
G1 X32.334 Y134.851 E0.09518
G1 X31.688 Y131.937 E0.09359
G1 X31.396 Y128.864 E0.09677
G1 X31.494 Y125.830 E0.09518
G1 X31.970 Y122.832 E0.09519
G1 X32.816 Y119.916 E0.09519
G1 X34.019 Y117.129 E0.09519
G1 X35.560 Y114.514 E0.09519
G1 X37.384 Y112.151 E0.09359
G1 X39.556 Y109.958 E0.09677
G1 X41.949 Y108.090 E0.09518
G1 X44.556 Y106.534 E0.09519
G1 X47.336 Y105.316 E0.09519
G1 X50.247 Y104.454 E0.09519
G1 X53.193 Y103.970 E0.09359
G1 X56.277 Y103.847 E0.09677
G1 X59.301 Y104.112 E0.09518
G1 X62.269 Y104.752 E0.09519
G1 X65.133 Y105.757 E0.09519
G1 X67.850 Y107.112 E0.09519
G1 X70.377 Y108.795 E0.09519
G1 X73.031 Y111.088 E0.10999
G1 X73.031 Y84.839 E0.82302
G1 X98.611 Y84.839 E0.80204
G1 X98.611 Y110.735 E0.81195
G1 X98.653 Y111.193 F10800.000
G1 X98.121 Y110.459
G1 F1200
G1 X94.369 Y106.707 E0.16672
G1 X94.605 Y106.408 E0.01196
G1 X97.951 Y109.754 E0.14872
G1 X97.951 Y109.220 E0.01680
G1 X94.840 Y106.109 E0.13827
G1 X95.075 Y105.809 E0.01196
G1 X97.951 Y108.685 E0.12781
G1 X97.951 Y108.151 E0.01680
G1 X95.310 Y105.510 E0.11736
G1 X95.539 Y105.204 E0.01200
G1 X97.951 Y107.617 E0.10721
G1 X97.951 Y107.082 E0.01680
G1 X95.721 Y104.852 E0.09913
G1 X95.902 Y104.499 E0.01247
G1 X97.951 Y106.548 E0.09105
G1 X97.951 Y106.013 E0.01680
G1 X96.084 Y104.146 E0.08297
G1 X96.266 Y103.794 E0.01247
G1 X97.951 Y105.479 E0.07489
G1 X97.951 Y104.944 E0.01680
G1 X96.448 Y103.441 E0.06681
G1 X96.519 Y103.302 E0.00490
G1 X96.593 Y103.052 E0.00821
G1 X97.951 Y104.410 E0.06036
G1 X97.951 Y103.875 E0.01680
G1 X96.714 Y102.638 E0.05497
G1 X96.836 Y102.225 E0.01353
G1 X97.951 Y103.341 E0.04958
G1 X97.951 Y102.806 E0.01680
G1 X96.957 Y101.812 E0.04418
G1 X97.078 Y101.399 E0.01353
G1 X97.951 Y102.272 E0.03879
G1 X97.951 Y101.737 E0.01680
G1 X97.161 Y100.947 E0.03513
G1 X97.207 Y100.459 E0.01540
G1 X97.951 Y101.203 E0.03306
G1 X97.951 Y100.668 E0.01680
G1 X97.254 Y99.971 E0.03098
G1 X97.300 Y99.483 E0.01540
G1 X97.951 Y100.134 E0.02891
G1 X97.951 Y99.600 E0.01680
G1 X97.342 Y98.990 E0.02707
G1 X97.286 Y98.400 E0.01865
G1 X97.951 Y99.065 E0.02958
G1 X97.951 Y98.531 E0.01680
G1 X97.229 Y97.809 E0.03208
G1 X97.173 Y97.218 E0.01865
G1 X97.951 Y97.996 E0.03459
G1 X97.951 Y97.462 E0.01680
G1 X97.057 Y96.568 E0.03973
G1 X96.835 Y95.811 E0.02478
G1 X97.951 Y96.927 E0.04961
G1 X97.951 Y96.393 E0.01680
G1 X96.613 Y95.054 E0.05948
G1 X96.519 Y94.736 E0.01041
G1 X96.189 Y94.097 E0.02262
G1 X98.121 Y96.028 E0.08583
G1 F8640
G1 X96.189 Y94.097 E-0.63064
G1 X96.519 Y94.736 E-0.16617
