; generated by PrusaSlicer 2.1.0+win64 on 2019-12-01 at 22:30:11 UTC

; 

; external perimeters extrusion width = 0.60mm
; perimeters extrusion width = 0.50mm
; infill extrusion width = 0.50mm
; solid infill extrusion width = 0.50mm
; top infill extrusion width = 0.45mm
; first layer extrusion width = 0.42mm

M73 P0 R77
M73 Q0 S77
M201 X1000 Y1000 Z1000 E5000 ; sets maximum accelerations, mm/sec^2
M203 X200 Y200 Z12 E120 ; sets maximum feedrates, mm/sec
M204 P1250 R1250 T1250 ; sets acceleration (P, T) and retract acceleration (R), mm/sec^2
M205 X8.00 Y8.00 Z0.40 E1.50 ; sets the jerk limits, mm/sec
M205 S0 T0 ; sets the minimum extruding and travel feed rate, mm/sec
M107
M862.3 P "MK3S" ; printer model check
M862.1 P0.4 ; nozzle diameter check
M115 U3.8.1 ; tell printer latest fw version
G90 ; use absolute coordinates
M83 ; extruder relative mode
M104 S240 ; set extruder temp
M140 S85 ; set bed temp
M190 S85 ; wait for bed temp
M109 S240 ; wait for extruder temp
G28 W ; home all without mesh bed level
G80 ; mesh bed leveling
G1 Y-3.0 F1000.0 ; go outside print area
G92 E0.0
G1 X60.0 E9.0 F1000.0 ; intro line
M73 Q0 S77
M73 P0 R77
G1 X100.0 E12.5 F1000.0 ; intro line
G92 E0.0
M221 S95
G21 ; set units to millimeters
G90 ; use absolute coordinates
M83 ; use relative distances for extrusion
M900 K45 ; Filament gcode
;BEFORE_LAYER_CHANGE
G92 E0.0
;0.2


G1 E-1.40000 F2100.00000
G1 Z0.200 F10800.000
;AFTER_LAYER_CHANGE
;0.2
G1 Z0.400
G1 X84.605 Y66.811
G1 Z0.200
G1 E1.40000 F2100.00000
M204 S1000
G1 F1200
G1 X86.336 Y65.031 E0.07783
G1 X88.255 Y63.451 E0.07795
G1 X90.239 Y62.150 E0.07439
G1 X92.669 Y60.921 E0.08537
G1 X94.895 Y60.091 E0.07451
G1 X97.396 Y59.467 E0.08080
G1 X99.757 Y59.143 E0.07474
G1 X102.165 Y59.074 E0.07554
G1 X148.909 Y59.074 E1.46562
G1 X151.559 Y59.299 E0.08337
G1 X153.887 Y59.757 E0.07439
G1 X156.252 Y60.497 E0.07772
G1 X158.638 Y61.554 E0.08183
G1 X160.688 Y62.742 E0.07428
G1 X162.685 Y64.210 E0.07772
G1 X164.599 Y65.985 E0.08183
G1 X166.152 Y67.773 E0.07428
G1 X167.566 Y69.813 E0.07783
G1 X168.798 Y72.110 E0.08171
G1 X169.686 Y74.306 E0.07428
G1 X170.359 Y76.684 E0.07749
G1 X170.771 Y79.147 E0.07829
G1 X170.907 Y81.607 E0.07726
G1 X170.905 Y128.469 E1.46932
G1 X170.754 Y130.972 E0.07862
G1 X170.361 Y133.305 E0.07416
G1 X169.718 Y135.592 E0.07451
G1 X168.750 Y138.000 E0.08137
G1 X167.500 Y140.288 E0.08171
G1 X166.076 Y142.320 E0.07782
G1 X164.520 Y144.102 E0.07417
G1 X162.847 Y145.646 E0.07138
G1 X160.700 Y147.250 E0.08402
G1 X158.638 Y148.446 E0.07474
G1 X156.263 Y149.499 E0.08149
G1 X153.894 Y150.241 E0.07783
G1 X151.447 Y150.720 E0.07817
G1 X149.079 Y150.920 E0.07451
G1 X102.178 Y150.926 E1.47054
G1 X99.783 Y150.859 E0.07514
G1 X97.291 Y150.515 E0.07886
G1 X94.774 Y149.868 E0.08149
G1 X92.557 Y149.034 E0.07428
G1 X90.441 Y147.967 E0.07428
G1 X88.308 Y146.588 E0.07965
G1 X86.341 Y144.974 E0.07977
G1 X84.608 Y143.192 E0.07795
G1 X83.078 Y141.228 E0.07806
G1 X81.778 Y139.113 E0.07783
G1 X80.715 Y136.862 E0.07806
G1 X79.908 Y134.510 E0.07794
G1 X79.365 Y132.085 E0.07795
G1 X79.093 Y129.639 E0.07714
G1 X79.092 Y80.364 E1.54498
G1 X79.387 Y77.801 E0.08091
G1 X79.908 Y75.490 E0.07428
G1 X80.673 Y73.251 E0.07417
G1 X81.773 Y70.897 E0.08149
G1 X83.078 Y68.772 E0.07817
G1 X84.568 Y66.858 E0.07606
G1 F8640
G1 X86.336 Y65.031 E-0.58694
G1 X88.255 Y63.451 E-0.57402
G1 X88.867 Y63.049 E-0.16904
G1 E-0.07000 F2100.00000
G1 Z0.400 F10800.000
G1 X99.344 Y116.581
G1 Z0.200
G1 E1.40000 F2100.00000
G1 F1200
G1 X101.093 Y116.375 E0.05521
G1 X102.853 Y116.427 E0.05522
G1 X104.580 Y116.734 E0.05500
G1 X106.259 Y117.295 E0.05549
G1 X107.828 Y118.091 E0.05516
G1 X109.265 Y119.110 E0.05522
G1 X110.534 Y120.325 E0.05510
G1 X111.618 Y121.719 E0.05536
G1 X112.483 Y123.252 E0.05519
G1 X113.115 Y124.896 E0.05522
G1 X113.500 Y126.614 E0.05521
G1 X113.629 Y128.371 E0.05524
G1 X113.500 Y130.127 E0.05522
G1 X113.115 Y131.846 E0.05522
G1 X112.484 Y133.489 E0.05520
G1 X111.616 Y135.026 E0.05533
G1 X110.537 Y136.414 E0.05513
G1 X109.265 Y137.632 E0.05522
G1 X107.829 Y138.649 E0.05517
G1 X106.251 Y139.449 E0.05546
G1 X104.587 Y140.006 E0.05502
G1 X102.853 Y140.315 E0.05522
G1 X101.096 Y140.366 E0.05514
G1 X99.335 Y140.158 E0.05558
G1 X97.645 Y139.700 E0.05492
G1 X96.033 Y138.998 E0.05512
G1 X94.838 Y138.268 E0.04391
G1 X94.530 Y138.058 E0.01167
G1 X93.462 Y137.170 E0.04356
G1 X93.189 Y136.916 E0.01167
G1 X92.262 Y135.882 E0.04356
G1 X92.030 Y135.590 E0.01167
G1 X91.263 Y134.432 E0.04356
G1 X91.077 Y134.109 E0.01167
G1 X90.487 Y132.851 E0.04356
G1 X90.351 Y132.505 E0.01167
G1 X89.951 Y131.174 E0.04356
G1 X89.868 Y130.811 E0.01167
G1 X89.666 Y129.437 E0.04356
G1 X89.638 Y129.065 E0.01167
G1 X89.638 Y127.676 E0.04356
G1 X89.666 Y127.305 E0.01167
G1 X89.868 Y125.930 E0.04356
G1 X89.951 Y125.567 E0.01167
G1 X90.351 Y124.237 E0.04356
G1 X90.487 Y123.890 E0.01167
G1 X91.077 Y122.632 E0.04356
G1 X91.263 Y122.310 E0.01167
G1 X92.030 Y121.151 E0.04356
G1 X92.262 Y120.860 E0.01167
G1 X93.189 Y119.825 E0.04356
G1 X93.462 Y119.572 E0.01167
G1 X94.530 Y118.683 E0.04356
G1 X94.838 Y118.473 E0.01167
G1 X96.024 Y117.749 E0.04356
G1 X96.359 Y117.588 E0.01167
G1 X97.647 Y117.041 E0.04389
G1 X99.286 Y116.597 E0.05325
G1 X99.385 Y116.961 F10800.000
G1 F1200
G1 X101.110 Y116.753 E0.05448
G1 X102.815 Y116.803 E0.05348
G1 X104.491 Y117.101 E0.05340
G1 X104.822 Y117.203 E0.01083
G1 X106.112 Y117.643 E0.04275
G1 X107.632 Y118.415 E0.05346
G1 X109.024 Y119.401 E0.05348
G1 X110.255 Y120.580 E0.05344
G1 X110.470 Y120.849 E0.01082
G1 X111.303 Y121.928 E0.04271
G1 X112.141 Y123.413 E0.05347
G1 X112.753 Y125.005 E0.05348
G1 X113.126 Y126.669 E0.05348
G1 X113.152 Y127.013 E0.01081
G1 X113.251 Y128.371 E0.04267
G1 X113.126 Y130.072 E0.05348
G1 X112.753 Y131.736 E0.05348
G1 X112.141 Y133.328 E0.05347
G1 X111.475 Y134.516 E0.04270
G1 X111.302 Y134.815 E0.01082
G1 X110.256 Y136.161 E0.05345
G1 X109.024 Y137.340 E0.05348
G1 X107.633 Y138.326 E0.05346
G1 X106.420 Y138.949 E0.04274
G1 X106.109 Y139.099 E0.01083
G1 X104.494 Y139.640 E0.05341
G1 X102.815 Y139.939 E0.05348
G1 X101.111 Y139.989 E0.05345
G1 X99.413 Y139.788 E0.05361
G1 X97.770 Y139.343 E0.05337
G1 X96.207 Y138.662 E0.05344
G1 X95.042 Y137.951 E0.04280
G1 X94.757 Y137.757 E0.01081
G1 X93.711 Y136.886 E0.04268
G1 X93.458 Y136.652 E0.01081
G1 X92.550 Y135.638 E0.04268
G1 X92.335 Y135.368 E0.01081
G1 X91.584 Y134.233 E0.04268
G1 X91.412 Y133.935 E0.01081
G1 X90.834 Y132.702 E0.04268
G1 X90.708 Y132.381 E0.01081
G1 X90.316 Y131.078 E0.04268
G1 X90.239 Y130.742 E0.01081
G1 X90.041 Y129.395 E0.04268
G1 X90.015 Y129.051 E0.01081
G1 X90.015 Y127.690 E0.04268
G1 X90.041 Y127.346 E0.01081
G1 X90.239 Y126.000 E0.04268
G1 X90.316 Y125.664 E0.01081
G1 X90.708 Y124.360 E0.04268
G1 X90.834 Y124.039 E0.01081
G1 X91.412 Y122.807 E0.04268
G1 X91.584 Y122.508 E0.01081
G1 X92.335 Y121.373 E0.04268
G1 X92.550 Y121.103 E0.01081
G1 X93.458 Y120.090 E0.04268
G1 X93.711 Y119.855 E0.01081
G1 X94.757 Y118.984 E0.04268
G1 X95.042 Y118.790 E0.01081
G1 X96.204 Y118.081 E0.04268
G1 X96.515 Y117.932 E0.01081
G1 X97.771 Y117.398 E0.04279
G1 X99.327 Y116.977 E0.05055
G1 X99.516 Y116.583 F10800.000
G1 F8640
G1 X101.110 Y116.753 E-0.41490
G1 X102.815 Y116.803 E-0.39382
G1 X104.491 Y117.101 E-0.39325
G1 X104.822 Y117.203 E-0.07977
G1 X105.019 Y117.270 E-0.04826
G1 E-0.07000 F2100.00000
G1 Z0.400 F10800.000
G1 X97.827 Y108.951
G1 Z0.200
G1 E1.40000 F2100.00000
G1 F1200
G1 X99.985 Y108.651 E0.06831
G1 X102.256 Y108.599 E0.07123
G1 X104.338 Y108.771 E0.06550
G1 X106.478 Y109.189 E0.06835
G1 X108.559 Y109.840 E0.06835
G1 X110.555 Y110.716 E0.06835
G1 X112.443 Y111.806 E0.06835
G1 X114.200 Y113.097 E0.06835
G1 X115.803 Y114.573 E0.06835
G1 X117.235 Y116.217 E0.06835
G1 X118.477 Y118.009 E0.06835
G1 X119.515 Y119.926 E0.06835
G1 X120.335 Y121.946 E0.06835
G1 X120.929 Y124.044 E0.06835
G1 X121.287 Y126.194 E0.06835
G1 X121.407 Y128.371 E0.06835
G1 X121.287 Y130.547 E0.06835
G1 X120.929 Y132.698 E0.06835
G1 X120.335 Y134.796 E0.06835
G1 X119.515 Y136.815 E0.06835
G1 X118.477 Y138.733 E0.06835
G1 X117.235 Y140.524 E0.06835
G1 X115.803 Y142.168 E0.06835
G1 X114.200 Y143.645 E0.06835
G1 X112.443 Y144.936 E0.06835
G1 X110.555 Y146.026 E0.06835
G1 X108.559 Y146.901 E0.06835
G1 X106.478 Y147.552 E0.06835
G1 X104.338 Y147.970 E0.06835
G1 X102.166 Y148.150 E0.06835
G1 X99.986 Y148.090 E0.06835
G1 X97.827 Y147.791 E0.06835
G1 X95.714 Y147.256 E0.06835
G1 X93.672 Y146.491 E0.06835
G1 X91.727 Y145.507 E0.06835
G1 X89.902 Y144.314 E0.06835
G1 X88.219 Y142.928 E0.06835
G1 X86.699 Y141.366 E0.06835
G1 X85.360 Y139.645 E0.06835
G1 X84.218 Y137.788 E0.06835
G1 X83.288 Y135.817 E0.06835
G1 X82.580 Y133.755 E0.06835
G1 X82.103 Y131.628 E0.06835
G1 X81.863 Y129.461 E0.06835
G1 X81.863 Y127.281 E0.06835
G1 X82.103 Y125.114 E0.06835
G1 X82.580 Y122.987 E0.06835
G1 X83.288 Y120.925 E0.06835
G1 X84.218 Y118.953 E0.06835
G1 X85.360 Y117.096 E0.06835
G1 X86.699 Y115.376 E0.06835
G1 X88.219 Y113.813 E0.06835
G1 X89.902 Y112.427 E0.06835
G1 X91.727 Y111.235 E0.06835
G1 X93.672 Y110.250 E0.06835
G1 X95.714 Y109.486 E0.06835
G1 X97.769 Y108.965 E0.06647
G1 X97.676 Y108.600 F10800.000
G1 F1200
G1 X99.955 Y108.275 E0.07216
G1 X102.268 Y108.221 E0.07254
G1 X104.390 Y108.397 E0.06678
G1 X106.571 Y108.823 E0.06966
G1 X108.691 Y109.486 E0.06966
G1 X110.725 Y110.379 E0.06966
G1 X112.649 Y111.489 E0.06966
G1 X114.440 Y112.805 E0.06966
G1 X116.074 Y114.310 E0.06966
G1 X117.533 Y115.985 E0.06966
G1 X118.799 Y117.811 E0.06966
G1 X119.857 Y119.765 E0.06966
G1 X120.693 Y121.823 E0.06966
G1 X121.297 Y123.961 E0.06966
G1 X121.663 Y126.152 E0.06966
G1 X121.785 Y128.371 E0.06966
G1 X121.663 Y130.589 E0.06966
G1 X121.297 Y132.780 E0.06966
G1 X120.693 Y134.918 E0.06966
G1 X119.857 Y136.976 E0.06966
G1 X118.799 Y138.930 E0.06966
G1 X117.533 Y140.756 E0.06966
G1 X116.074 Y142.431 E0.06966
G1 X114.440 Y143.936 E0.06966
G1 X112.649 Y145.252 E0.06966
G1 X110.725 Y146.363 E0.06966
G1 X108.691 Y147.255 E0.06966
G1 X106.571 Y147.918 E0.06966
G1 X104.390 Y148.344 E0.06966
G1 X102.176 Y148.528 E0.06966
G1 X99.955 Y148.466 E0.06966
G1 X97.755 Y148.161 E0.06966
G1 X95.601 Y147.616 E0.06966
G1 X93.520 Y146.837 E0.06966
G1 X91.538 Y145.834 E0.06966
G1 X89.678 Y144.619 E0.06966
G1 X87.963 Y143.206 E0.06966
G1 X86.414 Y141.614 E0.06966
G1 X85.050 Y139.861 E0.06966
G1 X83.886 Y137.968 E0.06966
G1 X82.938 Y135.959 E0.06966
G1 X82.217 Y133.858 E0.06966
G1 X81.731 Y131.690 E0.06966
G1 X81.486 Y129.482 E0.06966
G1 X81.486 Y127.260 E0.06966
G1 X81.731 Y125.052 E0.06966
G1 X82.217 Y122.884 E0.06966
G1 X82.938 Y120.783 E0.06966
G1 X83.886 Y118.773 E0.06966
G1 X85.050 Y116.881 E0.06966
G1 X86.414 Y115.127 E0.06966
G1 X87.963 Y113.535 E0.06966
G1 X89.678 Y112.123 E0.06966
G1 X91.538 Y110.908 E0.06966
G1 X93.520 Y109.904 E0.06966
G1 X95.601 Y109.125 E0.06966
G1 X97.618 Y108.615 E0.06524
G1 X97.940 Y108.901 F10800.000
G1 X98.552 Y108.964
G1 F1200
G1 X106.881 Y117.294 E0.37074
G1 X106.368 Y117.033 E0.01810
G1 X105.943 Y116.891 E0.01410
G1 X98.232 Y109.180 E0.34324
G1 X97.881 Y109.229 E0.01114
G1 X97.773 Y109.256 E0.00352
G1 X105.139 Y116.623 E0.32789
G1 X104.650 Y116.459 E0.01623
G1 X104.395 Y116.414 E0.00816
G1 X97.346 Y109.364 E0.31378
G1 X96.919 Y109.472 E0.01387
G1 X103.744 Y116.298 E0.30381
G1 X103.093 Y116.182 E0.02082
G1 X96.491 Y109.581 E0.29383
G1 X96.064 Y109.689 E0.01387
G1 X102.509 Y116.134 E0.28687
G1 X101.958 Y116.117 E0.01737
G1 X95.651 Y109.811 E0.28070
G1 X95.262 Y109.957 E0.01309
G1 X101.406 Y116.101 E0.27349
G1 X101.081 Y116.092 E0.01024
G1 X100.884 Y116.115 E0.00622
G1 X94.872 Y110.103 E0.26760
G1 X94.483 Y110.249 E0.01309
G1 X100.406 Y116.171 E0.26363
G1 X99.927 Y116.228 E0.01517
G1 X94.093 Y110.394 E0.25965
G1 X93.711 Y110.547 E0.01296
G1 X99.448 Y116.284 E0.25536
G1 X99.291 Y116.303 E0.00499
G1 X99.008 Y116.379 E0.00922
G1 X93.356 Y110.727 E0.25158
G1 X93.000 Y110.907 E0.01254
G1 X98.586 Y116.493 E0.24865
G1 X98.165 Y116.607 E0.01374
G1 X92.645 Y111.087 E0.24572
G1 X92.289 Y111.267 E0.01254
G1 X97.744 Y116.721 E0.24279
G1 X97.555 Y116.773 E0.00617
G1 X97.348 Y116.861 E0.00708
G1 X91.934 Y111.447 E0.24097
G1 X91.604 Y111.653 E0.01223
G1 X96.972 Y117.020 E0.23892
G1 X96.596 Y117.180 E0.01285
G1 X91.280 Y111.864 E0.23661
G1 X90.957 Y112.076 E0.01217
G1 X96.221 Y117.340 E0.23434
G1 X95.862 Y117.517 E0.01259
G1 X90.633 Y112.287 E0.23277
G1 X90.309 Y112.499 E0.01217
G1 X95.530 Y117.719 E0.23238
G1 X95.197 Y117.922 E0.01226
G1 X89.993 Y112.718 E0.23165
G1 X89.700 Y112.960 E0.01197
G1 X94.865 Y118.125 E0.22992
G1 X94.539 Y118.335 E0.01219
G1 X89.406 Y113.202 E0.22847
G1 X89.113 Y113.443 E0.01197
G1 X94.232 Y118.563 E0.22788
G1 X93.940 Y118.806 E0.01196
G1 X88.819 Y113.685 E0.22794
G1 X88.525 Y113.927 E0.01197
G1 X93.648 Y119.049 E0.22800
G1 X93.356 Y119.292 E0.01196
G1 X88.250 Y114.187 E0.22726
G1 X87.986 Y114.458 E0.01191
G1 X93.074 Y119.546 E0.22647
G1 X92.813 Y119.821 E0.01192
G1 X87.722 Y114.729 E0.22662
G1 X87.458 Y115.001 E0.01191
G1 X92.560 Y120.103 E0.22711
G1 X92.307 Y120.385 E0.01193
G1 X87.194 Y115.272 E0.22760
G1 X86.930 Y115.543 E0.01191
G1 X92.054 Y120.668 E0.22809
G1 X91.816 Y120.965 E0.01199
G1 X86.694 Y115.842 E0.22801
G1 X86.460 Y116.143 E0.01201
G1 X91.602 Y121.286 E0.22888
G1 X91.388 Y121.608 E0.01216
G1 X86.225 Y116.444 E0.22982
G1 X85.991 Y116.745 E0.01201
G1 X91.175 Y121.930 E0.23076
G1 X90.967 Y122.257 E0.01220
G1 X85.757 Y117.047 E0.23192
G1 X85.532 Y117.357 E0.01206
G1 X90.778 Y122.603 E0.23353
G1 X90.607 Y122.968 E0.01267
G1 X85.328 Y117.688 E0.23500
G1 X85.124 Y118.020 E0.01225
G1 X90.436 Y123.332 E0.23647
G1 X90.266 Y123.697 E0.01267
G1 X84.920 Y118.351 E0.23793
M73 Q1 S76
G1 X84.716 Y118.683 E0.01225
G1 X90.110 Y124.077 E0.24009
M73 P1 R76
G1 X89.982 Y124.483 E0.01343
G1 X84.513 Y119.014 E0.24344
G1 X84.334 Y119.371 E0.01255
G1 X89.858 Y124.895 E0.24588
G1 X89.734 Y125.306 E0.01353
G1 X84.162 Y119.735 E0.24801
G1 X83.991 Y120.098 E0.01266
G1 X89.623 Y125.731 E0.25073
G1 X89.544 Y126.187 E0.01457
G1 X83.819 Y120.462 E0.25485
G1 X83.647 Y120.826 E0.01266
G1 X89.476 Y126.654 E0.25943
G1 X89.407 Y127.121 E0.01485
G1 X83.491 Y121.204 E0.26334
G1 X83.354 Y121.603 E0.01326
G1 X89.359 Y127.608 E0.26731
G1 X89.355 Y128.139 E0.01671
G1 X83.217 Y122.001 E0.27321
G1 X83.080 Y122.400 E0.01326
G1 X89.355 Y128.675 E0.27930
G1 X89.366 Y129.221 E0.01719
G1 X82.944 Y122.798 E0.28587
G1 X82.853 Y123.064 E0.00882
G1 X82.820 Y123.210 E0.00472
G1 X89.437 Y129.828 E0.29457
G1 X89.530 Y130.455 E0.01997
G1 X82.722 Y123.647 E0.30304
G1 X82.624 Y124.085 E0.01411
G1 X89.645 Y131.106 E0.31254
G1 X89.861 Y131.857 E0.02460
G1 X82.526 Y124.522 E0.32651
G1 X82.428 Y124.959 E0.01411
G1 X90.095 Y132.627 E0.34129
G1 X90.227 Y132.963 E0.01137
G1 X90.519 Y133.586 E0.02166
G1 X82.354 Y125.421 E0.36346
G1 X82.300 Y125.903 E0.01526
G1 X91.109 Y134.711 E0.39206
G1 F8640
G1 X87.036 Y130.638 E-1.33000
G1 E-0.07000 F2100.00000
G1 Z0.400 F10800.000
G1 X95.248 Y138.850
G1 Z0.200
G1 E1.40000 F2100.00000
G1 F1200
G1 X104.104 Y147.706 E0.39421
G1 X104.299 Y147.690 E0.00618
G1 X104.570 Y147.637 E0.00868
G1 X96.399 Y139.466 E0.36371
G1 X97.348 Y139.879 E0.03258
G1 X105.018 Y147.549 E0.34140
G1 X105.466 Y147.462 E0.01436
G1 X98.128 Y140.124 E0.32662
G1 X98.862 Y140.322 E0.02393
G1 X105.914 Y147.374 E0.31389
G1 X106.361 Y147.287 E0.01436
G1 X99.541 Y140.467 E0.30357
G1 X100.149 Y140.539 E0.01925
G1 X106.773 Y147.164 E0.29487
G1 X107.181 Y147.036 E0.01345
G1 X100.756 Y140.611 E0.28599
G1 X101.083 Y140.650 E0.01036
G1 X101.323 Y140.643 E0.00756
G1 X107.589 Y146.908 E0.27890
G1 X107.997 Y146.781 E0.01345
G1 X101.843 Y140.627 E0.27390
G1 X102.363 Y140.612 E0.01638
G1 X108.404 Y146.653 E0.26891
G1 X108.459 Y146.636 E0.00181
G1 X108.781 Y146.495 E0.01107
G1 X102.883 Y140.597 E0.26254
G1 X103.338 Y140.516 E0.01453
G1 X109.153 Y146.332 E0.25887
G1 X109.526 Y146.168 E0.01279
G1 X103.792 Y140.435 E0.25521
G1 X104.246 Y140.354 E0.01453
G1 X109.898 Y146.005 E0.25154
G1 X110.270 Y145.842 E0.01279
G1 X104.696 Y140.268 E0.24811
G1 X105.097 Y140.134 E0.01331
G1 X110.623 Y145.660 E0.24598
G1 X110.962 Y145.464 E0.01233
